; HEADER_BLOCK_START
; generated by Creality_Print V5.1.2.9904 on 2024-08-03 at 13:03:48
; total layer number: 15
; filament_density: 1.24,1.24,1.24
; filament_diameter: 1.75,1.75,1.75
; max_z_height: 3.00
; HEADER_BLOCK_END

; MINX = 129.53
; MINY = 125.31
; MINZ = 0.00
; MAXX = 229.53
; MAXY = 225.31
; MAXZ = 3.00

; THUMBNAIL_BLOCK_START

;
; THUMBNAIL_BLOCK_END

; THUMBNAIL_BLOCK_START

;
; THUMBNAIL_BLOCK_END

; external perimeters extrusion width = 0.42mm
; perimeters extrusion width = 0.45mm
; infill extrusion width = 0.45mm
; solid infill extrusion width = 0.42mm
; top infill extrusion width = 0.42mm
; first layer extrusion width = 0.50mm

; external perimeters extrusion width = 0.42mm
; perimeters extrusion width = 0.45mm
; infill extrusion width = 0.45mm
; solid infill extrusion width = 0.42mm
; top infill extrusion width = 0.42mm
; first layer extrusion width = 0.50mm

; external perimeters extrusion width = 0.42mm
; perimeters extrusion width = 0.45mm
; infill extrusion width = 0.45mm
; solid infill extrusion width = 0.42mm
; top infill extrusion width = 0.42mm
; first layer extrusion width = 0.50mm

; EXECUTABLE_BLOCK_START
EXCLUDE_OBJECT_DEFINE NAME=我的标牌草稿.3mf_id_0_copy_0 CENTER=179.535,175.31 POLYGON=[[129.535,135.31],[129.626,133.954],[129.892,132.653],[130.321,131.419],[130.901,130.264],[131.619,129.201],[132.465,128.24],[133.426,127.395],[134.489,126.676],[135.644,126.096],[136.878,125.667],[138.179,125.401],[139.535,125.31],[219.535,125.31],[220.891,125.401],[222.192,125.667],[223.426,126.096],[224.58,126.676],[225.644,127.395],[226.604,128.24],[227.45,129.201],[228.169,130.264],[228.748,131.419],[229.177,132.653],[229.443,133.954],[229.535,135.31],[229.535,215.31],[229.443,216.666],[229.177,217.967],[228.748,219.201],[228.169,220.355],[227.45,221.419],[226.604,222.38],[225.644,223.225],[224.58,223.944],[223.426,224.523],[222.192,224.952],[220.891,225.219],[219.535,225.31],[139.535,225.31],[138.179,225.219],[136.878,224.952],[135.644,224.523],[134.489,223.944],[133.426,223.225],[132.465,222.38],[131.619,221.419],[130.901,220.355],[130.321,219.201],[129.892,217.967],[129.626,216.666],[129.535,215.31],[129.535,135.31]]
M73 P0 R26
M106 S0
M106 P2 S0
;TYPE:Custom
M140 S0
M104 S0 
START_PRINT EXTRUDER_TEMP=220 BED_TEMP=50
T0
M204 S2000
G1 Z3 F600
M83
G1 Y150 F12000
G1 X0 F12000
G1 Z0.2 F600
G1 X0 Y150 F6000
G1 X0 Y0 E15 F6000
G1 X150 Y0 E15 F6000
G92 E0
G1 Z1 F600
M141 S35;set chamber_temperature
G90
G21
M83 ; use relative distances for extrusion
T0
; filament start gcode
G1 Z.2 F30000
M106 S0
;LAYER_CHANGE
;Z:0.2
;HEIGHT:0.2
;BEFORE_LAYER_CHANGE
;0.2
G92 E0

;_SET_FAN_SPEED_CHANGING_LAYER
SET_VELOCITY_LIMIT ACCEL=2000 ACCEL_TO_DECEL=2000
SET_VELOCITY_LIMIT SQUARE_CORNER_VELOCITY=20
G1 E-.8 F2400
G1 Z.6 F30000
G1 X234.831 Y239.806
G1 Z.6
G1 Z.2
G1 E.8 F2400
; LAYER_HEIGHT: 0.2
; FEATURE: Prime tower
; LINE_WIDTH: 0.5
G1  X273.831 Y239.806  E1.4822 F3600
G1  Y256.806  E0.6461
G1  X234.831  E1.4822
G1  Y239.806  E0.6461
G1  X273.831 
G1  Y256.806 
G1  X272.831 
;--------------------
; CP EMPTY GRID START
; layer #1
G1  Y256.306  E0.0190
G1  X235.331  E1.4252
G1  Y255.806  E0.0190
G1  X273.331  E1.4442
G1  Y255.306  E0.0190
G1  X235.331  E1.4442
G1  Y254.806  E0.0190
G1  X273.331  E1.4442
G1  Y254.306  E0.0190
G1  X235.331  E1.4442
G1  Y253.806  E0.0190
G1  X273.331  E1.4442
G1  Y253.306  E0.0190
G1  X235.331  E1.4442
G1  Y252.806  E0.0190
G1  X273.331  E1.4442
G1  Y252.306  E0.0190
G1  X235.331  E1.4442
G1  Y251.806  E0.0190
G1  X273.331  E1.4442
G1  Y251.306  E0.0190
G1  X235.331  E1.4442
G1  Y250.806  E0.0190
G1  X273.331  E1.4442
M73 P1 R26
G1  Y250.306  E0.0190
G1  X235.331  E1.4442
G1  Y249.806  E0.0190
G1  X273.331  E1.4442
G1  Y249.306  E0.0190
G1  X235.331  E1.4442
G1  Y248.806  E0.0190
G1  X273.331  E1.4442
G1  Y248.306  E0.0190
G1  X235.331  E1.4442
G1  Y247.806  E0.0190
G1  X273.331  E1.4442
G1  Y247.306  E0.0190
G1  X235.331  E1.4442
G1  Y246.806  E0.0190
G1  X273.331  E1.4442
G1  Y246.306  E0.0190
G1  X235.331  E1.4442
G1  Y245.806  E0.0190
G1  X273.331  E1.4442
G1  Y245.306  E0.0190
G1  X235.331  E1.4442
G1  Y244.806  E0.0190
G1  X273.331  E1.4442
G1  Y244.306  E0.0190
G1  X235.331  E1.4442
G1  Y243.806  E0.0190
G1  X273.331  E1.4442
G1  Y243.306  E0.0190
G1  X235.331  E1.4442
G1  Y242.806  E0.0190
G1  X273.331  E1.4442
G1  Y242.306  E0.0190
G1  X235.331  E1.4442
G1  Y241.806  E0.0190
G1  X273.331  E1.4442
G1  Y241.306  E0.0190
G1  X235.331  E1.4442
G1  Y240.806  E0.0190
G1  X273.331  E1.4442
G1  Y240.306  E0.0190
G1  X235.331  E1.4442
G1  Y239.806  E0.0190
; CP EMPTY GRID END
;------------------






G1  X234.331 Y239.306  
G1  X274.331  E1.5203
G1  Y257.306  E0.6841
G1  X234.331  E1.5203
G1  Y239.306  E0.6841
G1  X233.874 Y238.849  
G1  X274.788  E1.5550
M73 P2 R26
G1  Y257.763  E0.7189
G1  X233.874  E1.5550
G1  Y238.849  E0.7189
G1  X233.417 Y238.392  
G1  X275.245  E1.5897
G1  Y258.220  E0.7536
G1  X233.417  E1.5897
G1  Y238.392  E0.7536
G1  X232.960 Y237.935  
G1  X275.702  E1.6245
G1  Y258.677  E0.7883
G1  X232.960  E1.6245
G1  Y237.935  E0.7883
G1  X232.503 Y237.478  
G1  X276.159  E1.6592
G1  Y259.134  E0.8231
G1  X232.503  E1.6592
G1  Y237.478  E0.8231
G1  X232.046 Y237.021  
G1  X276.616  E1.6940
G1  Y259.591  E0.8578
G1  X232.046  E1.6940
G1  Y237.021  E0.8578
G1  X231.589 Y236.564  
G1  X277.073  E1.7287
G1  Y260.048  E0.8926
G1  X231.589  E1.7287
G1  Y236.564  E0.8926
G1  X231.131 Y236.106  
G1  X277.531  E1.7635
G1  Y260.506  E0.9273
G1  X231.131  E1.7635
G1  Y236.106  E0.9273

G1 E-.56 F2400
;WIPE_START
G1 F3600
G1 X231.131 Y237.106 E-.24
;WIPE_END
EXCLUDE_OBJECT_START NAME=我的标牌草稿.3mf_id_0_copy_0
G1 X226.099 Y231.368 Z.6 F30000
G1 X134.923 Y127.417 Z.6
M73 P3 R26
G1 Z.2
G1 E.8 F2400
;TYPE:Inner wall
;WIDTH:0.499999
;HEIGHT:0.2
G1 F3600
G1 X135.978 Y126.887 E.04263
G1 X137.105 Y126.496 E.04308
G1 X138.294 Y126.252 E.0438
G1 X139.564 Y126.167 E.04595
G1 X219.506 Y126.167 E2.88639
G1 X220.776 Y126.252 E.04595
G1 X221.964 Y126.496 E.0438
G1 X223.091 Y126.887 E.04308
G1 X224.146 Y127.417 E.04263
G1 X225.119 Y128.074 E.04237
G1 X225.997 Y128.847 E.04226
G1 X226.77 Y129.726 E.04226
G1 X227.427 Y130.698 E.04237
G1 X227.957 Y131.753 E.04263
G1 X228.349 Y132.88 E.04308
G1 X228.592 Y134.069 E.0438
G3 X228.678 Y135.658 I-23.575 J2.066 E.05747
G1 X228.678 Y215.281 E2.87486
G1 X228.592 Y216.551 E.04595
G1 X228.349 Y217.739 E.0438
G1 X227.957 Y218.866 E.04308
G1 X227.427 Y219.921 E.04263
G1 X226.77 Y220.894 E.04237
G1 X225.997 Y221.772 E.04226
G1 X225.119 Y222.546 E.04226
G1 X224.146 Y223.203 E.04237
G1 X223.091 Y223.732 E.04263
G1 X221.964 Y224.124 E.04308
G1 X220.776 Y224.367 E.0438
G1 X219.506 Y224.453 E.04595
G1 X139.564 Y224.453 E2.88639
G1 X138.294 Y224.367 E.04595
G1 X137.105 Y224.124 E.0438
G1 X135.978 Y223.732 E.04308
G1 X134.923 Y223.203 E.04263
G1 X133.951 Y222.546 E.04237
G1 X133.072 Y221.772 E.04226
G1 X132.299 Y220.894 E.04226
G1 X131.642 Y219.921 E.04237
G1 X131.112 Y218.866 E.04263
G1 X130.72 Y217.739 E.04308
G1 X130.477 Y216.551 E.0438
G1 X130.392 Y215.281 E.04595
G1 X130.392 Y135.339 E2.88639
G1 X130.477 Y134.069 E.04595
G1 X130.72 Y132.88 E.0438
G1 X131.112 Y131.753 E.04308
G1 X131.642 Y130.698 E.04263
G1 X132.299 Y129.726 E.04237
G1 X133.072 Y128.847 E.04226
G1 X133.951 Y128.074 E.04226
G1 X134.89 Y127.44 E.04093
G1 X134.692 Y127.022 F30000
;TYPE:Outer wall
G1 F3600
G1 X135.8 Y126.465 E.04477
G1 X136.984 Y126.054 E.04526
G1 X138.232 Y125.799 E.04601
G1 X139.548 Y125.71 E.04762
G1 X219.521 Y125.71 E2.8875
M73 P3 R25
G1 X220.837 Y125.799 E.04762
G1 X222.086 Y126.054 E.04601
G1 X223.27 Y126.465 E.04526
G1 X224.378 Y127.022 E.04477
G1 X225.399 Y127.712 E.04449
G1 X226.321 Y128.524 E.04436
G1 X227.133 Y129.446 E.04436
G1 X227.823 Y130.467 E.04449
G1 X228.379 Y131.575 E.04477
G1 X228.791 Y132.759 E.04526
G1 X229.046 Y134.007 E.04601
G3 X229.135 Y135.658 I-24.487 J2.143 E.05969
G1 X229.135 Y215.296 E2.87542
G1 X229.046 Y216.612 E.04762
G1 X228.791 Y217.861 E.04601
G1 X228.379 Y219.045 E.04526
G1 X227.823 Y220.153 E.04477
G1 X227.133 Y221.174 E.04449
G1 X226.321 Y222.096 E.04436
G1 X225.399 Y222.908 E.04436
G1 X224.378 Y223.598 E.04449
G1 X223.27 Y224.154 E.04477
G1 X222.086 Y224.566 E.04526
G1 X220.837 Y224.821 E.04601
G1 X219.521 Y224.91 E.04762
G1 X139.548 Y224.91 E2.8875
G1 X138.232 Y224.821 E.04762
G1 X136.984 Y224.566 E.04601
G1 X135.8 Y224.154 E.04526
G1 X134.692 Y223.598 E.04477
G1 X133.671 Y222.908 E.04449
G1 X132.748 Y222.096 E.04436
G1 X131.937 Y221.174 E.04436
G1 X131.247 Y220.153 E.04449
G1 X130.69 Y219.045 E.04477
G1 X130.279 Y217.861 E.04526
G1 X130.023 Y216.612 E.04601
G1 X129.935 Y215.296 E.04762
G1 X129.935 Y135.323 E2.8875
G1 X130.023 Y134.007 E.04762
G1 X130.279 Y132.759 E.04601
G1 X130.69 Y131.575 E.04526
G1 X131.247 Y130.467 E.04477
G1 X131.937 Y129.446 E.04449
G1 X132.748 Y128.524 E.04436
G1 X133.671 Y127.712 E.04436
G1 X134.659 Y127.044 E.04305
G1 E-.56 F2400
;WIPE_START
G1 F3600
G1 X135.55 Y126.592 E-.24
;WIPE_END
G1 X143.183 Y126.627 Z.6 F30000
G1 X223.041 Y126.991 Z.6
G1 Z.2
G1 E.8 F2400
;TYPE:Bottom surface
;WIDTH:0.500175
G1 F6300
G1 X227.393 Y131.343 E.22232
G3 X227.865 Y132.461 I-4.015 J2.351 E.04395
G1 X222.384 Y126.98 E.27998
G2 X221.48 Y126.723 I-1.414 J3.254 E.03403
G1 X228.122 Y133.365 E.33926
G1 X228.278 Y134.168 E.02956
G1 X220.677 Y126.566 E.38829
G1 X219.983 Y126.52 E.0251
G1 X228.325 Y134.861 E.4261
G3 X228.358 Y135.541 I-5.027 J.584 E.02459
G1 X219.304 Y126.487 E.46249
G1 X218.657 Y126.487 E.02336
G1 X228.358 Y136.188 E.49552
G1 X228.358 Y136.834 E.02336
G1 X218.01 Y126.487 E.52855
G1 X217.364 Y126.487 E.02336
G1 X228.358 Y137.481 E.56159
G1 X228.358 Y138.128 E.02336
G1 X216.717 Y126.487 E.59462
G1 X216.07 Y126.487 E.02336
G1 X228.358 Y138.774 E.62765
G1 X228.358 Y139.421 E.02336
G1 X215.424 Y126.487 E.66068
G1 X214.777 Y126.487 E.02336
G1 X228.358 Y140.067 E.69371
G1 X228.358 Y140.714 E.02336
G1 X214.13 Y126.487 E.72675
G1 X213.484 Y126.487 E.02336
G1 X228.358 Y141.361 E.75978
G1 X228.358 Y142.007 E.02336
G1 X212.837 Y126.487 E.79281
M73 P4 R25
G1 X212.19 Y126.487 E.02336
G1 X228.358 Y142.654 E.82584
G1 X228.358 Y143.301 E.02336
G1 X211.544 Y126.487 E.85887
G1 X210.897 Y126.487 E.02336
G1 X228.358 Y143.947 E.89191
G1 X228.358 Y144.594 E.02336
G1 X210.251 Y126.487 E.92494
G1 X209.604 Y126.487 E.02336
G1 X228.358 Y145.241 E.95797
G1 X228.358 Y145.887 E.02336
G1 X208.957 Y126.487 E.991
G1 X208.311 Y126.487 E.02336
G1 X228.358 Y146.534 E1.02403
G1 X228.358 Y147.181 E.02336
G1 X207.664 Y126.487 E1.05706
G1 X207.017 Y126.487 E.02336
G1 X228.358 Y147.827 E1.0901
G1 X228.358 Y148.474 E.02336
G1 X206.371 Y126.487 E1.12313
G1 X205.724 Y126.487 E.02336
G1 X228.358 Y149.121 E1.15616
G1 X228.358 Y149.767 E.02336
G1 X205.077 Y126.487 E1.18919
G1 X204.431 Y126.487 E.02336
G1 X228.358 Y150.414 E1.22222
G1 X228.358 Y151.061 E.02336
G1 X203.784 Y126.487 E1.25526
G1 X203.137 Y126.487 E.02336
G1 X228.358 Y151.707 E1.28829
G1 X228.358 Y152.354 E.02336
G1 X202.491 Y126.487 E1.32132
G1 X201.844 Y126.487 E.02336
G1 X228.358 Y153.001 E1.35435
G1 X228.358 Y153.647 E.02336
G1 X201.197 Y126.487 E1.38738
G1 X200.551 Y126.487 E.02336
G1 X228.358 Y154.294 E1.42042
G1 X228.358 Y154.941 E.02336
G1 X199.904 Y126.487 E1.45345
G1 X199.257 Y126.487 E.02336
G1 X228.358 Y155.587 E1.48648
G1 X228.358 Y156.234 E.02336
G1 X198.611 Y126.487 E1.51951
G1 X197.964 Y126.487 E.02336
G1 X228.358 Y156.881 E1.55254
G1 X228.358 Y157.527 E.02336
G1 X197.317 Y126.487 E1.58558
G1 X196.671 Y126.487 E.02336
G1 X228.358 Y158.174 E1.61861
G1 X228.358 Y158.821 E.02336
G1 X196.024 Y126.487 E1.65164
G1 X195.377 Y126.487 E.02336
G1 X228.358 Y159.467 E1.68467
G1 X228.358 Y160.114 E.02336
G1 X194.731 Y126.487 E1.7177
G1 X194.084 Y126.487 E.02336
G1 X228.358 Y160.76 E1.75074
G1 X228.358 Y161.407 E.02336
G1 X193.437 Y126.487 E1.78377
G1 X192.791 Y126.487 E.02336
G1 X228.358 Y162.054 E1.8168
G1 X228.358 Y162.7 E.02336
G1 X192.144 Y126.487 E1.84983
G1 X191.497 Y126.487 E.02336
G1 X228.358 Y163.347 E1.88286
G1 X228.358 Y163.994 E.02336
G1 X190.851 Y126.487 E1.9159
G1 X190.204 Y126.487 E.02336
G1 X228.358 Y164.64 E1.94893
G1 X228.358 Y165.287 E.02336
G1 X189.558 Y126.487 E1.98196
G1 X188.911 Y126.487 E.02336
G1 X228.358 Y165.934 E2.01499
G1 X228.358 Y166.58 E.02336
G1 X188.264 Y126.487 E2.04802
M73 P5 R25
G1 X187.618 Y126.487 E.02336
G1 X228.358 Y167.227 E2.08106
G1 X228.358 Y167.874 E.02336
G1 X186.971 Y126.487 E2.11409
G1 X186.324 Y126.487 E.02336
G1 X228.358 Y168.52 E2.14712
G1 X228.358 Y169.167 E.02336
G1 X185.678 Y126.487 E2.18015
G1 X185.031 Y126.487 E.02336
G1 X228.358 Y169.814 E2.21318
G1 X228.358 Y170.46 E.02336
G1 X184.384 Y126.487 E2.24622
G1 X183.738 Y126.487 E.02336
G1 X228.358 Y171.107 E2.27925
G1 X228.358 Y171.754 E.02336
G1 X183.091 Y126.487 E2.31228
G1 X182.444 Y126.487 E.02336
G1 X228.358 Y172.4 E2.34531
G1 X228.358 Y173.047 E.02336
G1 X181.798 Y126.487 E2.37834
G1 X181.151 Y126.487 E.02336
G1 X228.358 Y173.694 E2.41138
G1 X228.358 Y174.34 E.02336
G1 X180.504 Y126.487 E2.44441
G1 X179.858 Y126.487 E.02336
G1 X228.358 Y174.987 E2.47744
G1 X228.358 Y175.634 E.02336
G1 X179.211 Y126.487 E2.51047
G1 X178.564 Y126.487 E.02336
G1 X228.358 Y176.28 E2.5435
G1 X228.358 Y176.927 E.02336
G1 X177.918 Y126.487 E2.57654
G1 X177.271 Y126.487 E.02336
G1 X228.358 Y177.574 E2.60957
G1 X228.358 Y178.22 E.02336
G1 X176.624 Y126.487 E2.6426
G1 X175.978 Y126.487 E.02336
G1 X228.358 Y178.867 E2.67563
G1 X228.358 Y179.514 E.02336
G1 X175.331 Y126.487 E2.70866
G1 X174.684 Y126.487 E.02336
G1 X228.358 Y180.16 E2.7417
G1 X228.358 Y180.807 E.02336
G1 X174.038 Y126.487 E2.77473
G1 X173.391 Y126.487 E.02336
G1 X228.358 Y181.453 E2.80776
M73 P6 R25
G1 X228.358 Y182.1 E.02336
G1 X172.744 Y126.487 E2.84079
G1 X172.098 Y126.487 E.02336
G1 X228.358 Y182.747 E2.87382
G1 X228.358 Y183.393 E.02336
G1 X171.451 Y126.487 E2.90686
G1 X170.804 Y126.487 E.02336
G1 X228.358 Y184.04 E2.93989
G1 X228.358 Y184.687 E.02336
G1 X170.158 Y126.487 E2.97292
G1 X169.511 Y126.487 E.02336
G1 X228.358 Y185.333 E3.00595
G1 X228.358 Y185.98 E.02336
G1 X168.865 Y126.487 E3.03898
G1 X168.218 Y126.487 E.02336
G1 X228.358 Y186.627 E3.07202
G1 X228.358 Y187.273 E.02336
G1 X167.571 Y126.487 E3.10505
G1 X166.925 Y126.487 E.02336
G1 X228.358 Y187.92 E3.13808
G1 X228.358 Y188.567 E.02336
G1 X166.278 Y126.487 E3.17111
G1 X165.631 Y126.487 E.02336
G1 X228.358 Y189.213 E3.20414
G1 X228.358 Y189.86 E.02336
G1 X164.985 Y126.487 E3.23718
G1 X164.338 Y126.487 E.02336
G1 X228.358 Y190.507 E3.27021
G1 X228.358 Y191.153 E.02336
G1 X163.691 Y126.487 E3.30324
G1 X163.045 Y126.487 E.02336
G1 X228.358 Y191.8 E3.33627
G1 X228.358 Y192.447 E.02336
G1 X162.398 Y126.487 E3.3693
G1 X161.751 Y126.487 E.02336
G1 X228.358 Y193.093 E3.40234
G1 X228.358 Y193.74 E.02336
G1 X161.105 Y126.487 E3.43537
M73 P7 R25
G1 X160.458 Y126.487 E.02336
G1 X228.358 Y194.387 E3.4684
G1 X228.358 Y195.033 E.02336
G1 X159.811 Y126.487 E3.50143
M73 P7 R24
G1 X159.165 Y126.487 E.02336
G1 X228.358 Y195.68 E3.53446
G1 X228.358 Y196.327 E.02336
G1 X158.518 Y126.487 E3.56749
G1 X157.871 Y126.487 E.02336
G1 X228.358 Y196.973 E3.60053
G1 X228.358 Y197.62 E.02336
G1 X157.225 Y126.487 E3.63356
G1 X156.578 Y126.487 E.02336
G1 X228.358 Y198.267 E3.66659
G1 X228.358 Y198.913 E.02336
G1 X155.931 Y126.487 E3.69962
G1 X155.285 Y126.487 E.02336
G1 X228.358 Y199.56 E3.73265
G1 X228.358 Y200.207 E.02336
G1 X154.638 Y126.487 E3.76569
G1 X153.991 Y126.487 E.02336
G1 X228.358 Y200.853 E3.79872
G1 X228.358 Y201.5 E.02336
G1 X153.345 Y126.487 E3.83175
G1 X152.698 Y126.487 E.02336
G1 X228.358 Y202.146 E3.86478
G1 X228.358 Y202.793 E.02336
G1 X152.051 Y126.487 E3.89781
G1 X151.405 Y126.487 E.02336
G1 X228.358 Y203.44 E3.93085
G1 X228.358 Y204.086 E.02336
G1 X150.758 Y126.487 E3.96388
M73 P8 R24
G1 X150.111 Y126.487 E.02336
G1 X228.358 Y204.733 E3.99691
G1 X228.358 Y205.38 E.02336
G1 X149.465 Y126.487 E4.02994
G1 X148.818 Y126.487 E.02336
G1 X228.358 Y206.026 E4.06297
G1 X228.358 Y206.673 E.02336
G1 X148.172 Y126.487 E4.09601
G1 X147.525 Y126.487 E.02336
G1 X228.358 Y207.32 E4.12904
