; HEADER_BLOCK_START
; generated by Creality_Print V5.1.2.9904 on 2024-08-03 at 17:44:59
; total layer number: 192
; filament_density: 1.24
; filament_diameter: 1.75
; max_z_height: 48.00
; HEADER_BLOCK_END

; MINX = 145.00
; MINY = 159.50
; MINZ = 0.00
; MAXX = 205.00
; MAXY = 190.50
; MAXZ = 48.00

; THUMBNAIL_BLOCK_START

;
; THUMBNAIL_BLOCK_END

; THUMBNAIL_BLOCK_START

;
; THUMBNAIL_BLOCK_END

; external perimeters extrusion width = 0.50mm
; perimeters extrusion width = 0.50mm
; infill extrusion width = 0.50mm
; solid infill extrusion width = 0.50mm
; top infill extrusion width = 0.42mm
; first layer extrusion width = 0.50mm

; EXECUTABLE_BLOCK_START
EXCLUDE_OBJECT_DEFINE NAME=3DBenchy.stl_id_0_copy_0 CENTER=175,175 POLYGON=[[145,165.816],[145.002,165.755],[145.007,165.699],[145.012,165.646],[145.014,165.63],[145.02,165.583],[145.028,165.525],[145.046,165.436],[145.058,165.379],[145.074,165.322],[145.081,165.296],[145.097,165.239],[145.126,165.155],[145.141,165.118],[145.162,165.064],[145.169,165.047],[145.186,165.01],[145.209,164.958],[145.231,164.916],[145.264,164.854],[145.278,164.827],[145.291,164.806],[145.34,164.727],[145.357,164.7],[145.371,164.679],[145.405,164.631],[145.44,164.584],[145.484,164.531],[145.508,164.501],[145.539,164.466],[145.578,164.423],[145.592,164.408],[145.6,164.4],[145.641,164.359],[145.661,164.34],[145.704,164.3],[145.737,164.271],[145.783,164.234],[145.793,164.225],[145.828,164.197],[145.887,164.154],[145.935,164.121],[145.979,164.092],[146.044,164.052],[146.071,164.036],[146.124,164.008],[146.148,163.995],[146.175,163.981],[146.197,163.97],[146.253,163.944],[146.312,163.919],[146.362,163.899],[146.417,163.879],[146.429,163.875],[146.472,163.861],[146.485,163.857],[146.541,163.84],[146.548,163.838],[146.584,163.828],[146.597,163.825],[146.625,163.818],[146.641,163.814],[146.71,163.799],[146.739,163.794],[146.769,163.789],[146.798,163.784],[174.813,159.886],[175.055,159.853],[175.299,159.821],[175.543,159.791],[175.882,159.752],[176.105,159.728],[176.35,159.702],[176.596,159.678],[176.842,159.656],[177.087,159.635],[177.253,159.622],[177.333,159.616],[177.523,159.602],[177.579,159.598],[177.826,159.581],[177.987,159.571],[178.071,159.566],[178.232,159.557],[178.489,159.544],[178.597,159.539],[178.619,159.538],[178.755,159.532],[178.906,159.526],[179.05,159.521],[179.167,159.517],[179.233,159.515],[179.342,159.512],[179.46,159.509],[179.548,159.507],[179.689,159.504],[179.881,159.501],[180.063,159.499],[180.18,159.498],[180.578,159.498],[180.934,159.5],[181.369,159.508],[181.45,159.51],[181.805,159.52],[181.912,159.524],[182.24,159.537],[182.677,159.558],[183.009,159.578],[183.092,159.583],[183.202,159.59],[183.375,159.602],[183.495,159.611],[183.641,159.622],[183.728,159.629],[183.909,159.644],[184.04,159.655],[184.832,159.78],[184.841,159.782],[185.269,159.888],[185.377,159.915],[185.595,159.97],[185.737,160.007],[185.813,160.027],[185.967,160.068],[186.248,160.145],[186.424,160.195],[186.68,160.27],[186.896,160.334],[187.111,160.4],[187.332,160.47],[187.558,160.543],[187.752,160.607],[188.008,160.694],[188.178,160.753],[188.232,160.772],[188.4,160.832],[188.601,160.905],[188.822,160.987],[189.033,161.067],[189.233,161.145],[189.343,161.188],[189.443,161.228],[189.453,161.232],[189.662,161.316],[189.871,161.402],[189.927,161.425],[190.134,161.513],[190.341,161.603],[190.547,161.693],[190.957,161.879],[191.16,161.974],[191.363,162.07],[191.565,162.168],[191.766,162.267],[191.967,162.367],[192.166,162.469],[192.366,162.572],[192.563,162.677],[192.762,162.783],[192.957,162.89],[193.153,162.999],[193.348,163.11],[193.543,163.221],[193.737,163.334],[193.93,163.449],[194.123,163.565],[194.314,163.683],[194.505,163.801],[194.696,163.922],[194.885,164.043],[195.075,164.167],[195.262,164.291],[195.451,164.417],[195.637,164.544],[195.824,164.673],[196.008,164.803],[196.193,164.934],[196.376,165.067],[196.56,165.201],[196.742,165.337],[196.923,165.474],[197.104,165.612],[197.284,165.752],[197.463,165.893],[197.642,166.036],[197.82,166.18],[197.998,166.325],[198.173,166.472],[198.523,166.77],[198.697,166.921],[198.87,167.074],[199.042,167.228],[199.214,167.384],[199.328,167.489],[199.498,167.645],[199.665,167.803],[199.832,167.962],[199.996,168.122],[200.161,168.283],[200.325,168.445],[200.486,168.609],[200.647,168.773],[200.807,168.939],[200.966,169.106],[201.124,169.274],[201.282,169.443],[201.438,169.614],[201.592,169.785],[201.745,169.958],[201.898,170.132],[202.05,170.306],[202.2,170.483],[202.349,170.66],[202.498,170.838],[202.645,171.017],[202.791,171.198],[202.936,171.38],[203.081,171.563],[203.223,171.747],[203.364,171.932],[203.505,172.118],[203.645,172.305],[203.784,172.493],[203.921,172.683],[204.056,172.874],[204.192,173.065],[204.325,173.258],[204.458,173.452],[204.589,173.647],[204.618,173.692],[204.651,173.745],[204.682,173.798],[204.713,173.852],[204.742,173.907],[204.769,173.962],[204.819,174.076],[204.834,174.117],[204.856,174.175],[204.876,174.233],[204.895,174.292],[204.912,174.351],[204.929,174.413],[204.943,174.47],[204.954,174.53],[204.966,174.593],[204.975,174.652],[204.984,174.713],[204.991,174.774],[204.995,174.836],[204.998,174.905],[205,174.966],[205,175.027],[204.999,175.088],[204.996,175.149],[204.992,175.209],[204.986,175.27],[204.977,175.331],[204.968,175.391],[204.958,175.449],[204.945,175.512],[204.932,175.569],[204.916,175.632],[204.901,175.686],[204.883,175.745],[204.863,175.803],[204.842,175.861],[204.82,175.918],[204.797,175.974],[204.771,176.03],[204.744,176.086],[204.716,176.14],[204.686,176.194],[204.655,176.248],[204.623,176.301],[204.589,176.353],[204.472,176.527],[204.339,176.721],[204.206,176.914],[204.071,177.106],[203.936,177.297],[203.797,177.487],[203.659,177.676],[203.52,177.864],[203.38,178.05],[203.237,178.236],[203.095,178.42],[202.95,178.604],[202.659,178.968],[202.51,179.148],[202.361,179.328],[202.21,179.506],[202.06,179.683],[201.907,179.86],[201.752,180.035],[201.597,180.209],[201.482,180.337],[201.325,180.509],[201.167,180.68],[201.008,180.85],[200.848,181.018],[200.688,181.186],[200.526,181.352],[200.2,181.68],[200.034,181.841],[199.869,182.002],[199.703,182.161],[199.535,182.319],[199.367,182.475],[199.199,182.63],[199.028,182.784],[198.857,182.937],[198.686,183.089],[198.512,183.239],[198.338,183.388],[198.164,183.536],[197.987,183.682],[197.811,183.827],[197.632,183.971],[197.454,184.114],[197.275,184.256],[197.093,184.396],[196.911,184.535],[196.728,184.673],[196.544,184.81],[196.359,184.945],[196.173,185.08],[195.799,185.344],[195.611,185.474],[195.421,185.603],[195.23,185.731],[195.039,185.857],[194.846,185.982],[194.653,186.106],[194.458,186.228],[194.263,186.349],[194.067,186.469],[193.869,186.587],[193.672,186.704],[193.472,186.819],[193.272,186.934],[193.072,187.046],[192.87,187.158],[192.595,187.307],[192.395,187.412],[192.196,187.516],[191.996,187.618],[191.796,187.719],[191.595,187.818],[191.392,187.916],[191.19,188.012],[190.987,188.107],[190.783,188.2],[190.579,188.292],[190.374,188.383],[190.169,188.472],[189.963,188.559],[189.756,188.645],[189.666,188.682],[189.549,188.73],[189.341,188.813],[189.122,188.898],[189.003,188.944],[188.704,189.057],[188.493,189.134],[188.293,189.206],[188.071,189.284],[187.884,189.348],[187.869,189.353],[187.656,189.424],[187.443,189.494],[187.207,189.57],[187.005,189.632],[186.979,189.64],[186.751,189.709],[186.523,189.776],[186.295,189.841],[186.142,189.884],[186.065,189.905],[185.924,189.943],[185.707,190.001],[185.606,190.027],[185.488,190.057],[185.269,190.112],[184.843,190.218],[184.316,190.319],[184.306,190.32],[184.05,190.344],[184.003,190.348],[183.81,190.364],[183.725,190.371],[183.561,190.384],[183.481,190.39],[183.134,190.414],[182.688,190.441],[182.649,190.443],[182.264,190.462],[182.126,190.468],[181.778,190.481],[181.564,190.487],[181.344,190.493],[180.907,190.5],[180.522,190.502],[180.177,190.502],[179.877,190.499],[179.821,190.498],[179.599,190.494],[179.457,190.491],[179.338,190.488],[179.166,190.483],[179.076,190.48],[178.93,190.475],[178.752,190.468],[178.728,190.467],[178.57,190.46],[178.463,190.455],[178.332,190.448],[178.133,190.437],[177.889,190.423],[177.644,190.407],[177.629,190.406],[177.342,190.385],[177.096,190.366],[176.849,190.345],[176.667,190.328],[176.603,190.322],[176.423,190.305],[176.179,190.28],[176.111,190.273],[175.935,190.254],[175.619,190.218],[175.373,190.188],[175.204,190.166],[174.882,190.124],[146.827,186.22],[146.792,186.215],[146.743,186.207],[146.686,186.196],[146.653,186.189],[146.597,186.175],[146.584,186.172],[146.548,186.162],[146.536,186.159],[146.481,186.142],[146.429,186.125],[146.417,186.121],[146.362,186.101],[146.312,186.081],[146.253,186.056],[146.197,186.03],[146.155,186.009],[146.105,185.982],[146.086,185.972],[146.044,185.948],[145.993,185.917],[145.979,185.908],[145.944,185.885],[145.935,185.879],[145.887,185.846],[145.847,185.817],[145.84,185.811],[145.793,185.775],[145.756,185.744],[145.749,185.738],[145.704,185.7],[145.661,185.66],[145.641,185.64],[145.592,185.592],[145.557,185.555],[145.539,185.534],[145.519,185.511],[145.481,185.466],[145.445,185.42],[145.431,185.402],[145.41,185.374],[145.407,185.37],[145.373,185.322],[145.357,185.3],[145.342,185.278],[145.308,185.224],[145.278,185.173],[145.25,185.122],[145.231,185.084],[145.218,185.06],[145.195,185.012],[145.169,184.954],[145.148,184.903],[145.127,184.849],[145.109,184.793],[145.107,184.79],[145.09,184.738],[145.075,184.682],[145.06,184.625],[145.046,184.564],[145.035,184.507],[145.026,184.454],[145.025,184.448],[145.016,184.396],[145.012,184.353],[145.008,184.325],[145.002,184.245],[145,184.208],[145,184.179],[145,165.816]]
M73 P0 R14
M106 S0
M106 P2 S0
;TYPE:Custom
M140 S0
M104 S0 
START_PRINT EXTRUDER_TEMP=220 BED_TEMP=50
T0
M204 S2000
G1 Z3 F600
M83
G1 Y150 F12000
G1 X0 F12000
G1 Z0.2 F600
G1 X0 Y150 F6000
G1 X0 Y0 E15 F6000
G1 X150 Y0 E15 F6000
G92 E0
G1 Z1 F600
M141 S35;set chamber_temperature
G90
G21
M83 ; use relative distances for extrusion
; filament start gcode
M106 S0
;LAYER_CHANGE
;Z:0.25
;HEIGHT:0.25
;BEFORE_LAYER_CHANGE
;0.25
G92 E0

G1 E-.8 F2400
;_SET_FAN_SPEED_CHANGING_LAYER
SET_VELOCITY_LIMIT ACCEL=10000 ACCEL_TO_DECEL=10000
SET_VELOCITY_LIMIT SQUARE_CORNER_VELOCITY=20
EXCLUDE_OBJECT_START NAME=3DBenchy.stl_id_0_copy_0
G1 X148.478 Y167.63 F30000
G1 Z.25
G1 E.8 F2400
;TYPE:Brim
;WIDTH:0.5
G1 F6000
G1 X148.741 Y167.398 E.01545
G1 X149.031 Y167.194 E.01568
G1 X149.455 Y166.969 E.02112
G1 X149.882 Y166.813 E.02003
G1 X150.294 Y166.719 E.01863
G1 X150.666 Y166.677 E.01651
G1 X174.058 Y165.251 E1.03285
G1 X175.296 Y165.223 E.05458
G1 X176.289 Y165.266 E.04381
G1 X177.202 Y165.36 E.04049
G1 X178.395 Y165.562 E.05328
G1 X179.345 Y165.787 E.04307
G1 X180.528 Y166.151 E.05455
G1 X181.431 Y166.496 E.0426
G1 X182.403 Y166.939 E.04709
G1 X183.429 Y167.492 E.05136
G1 X184.466 Y168.151 E.05413
G1 X185.259 Y168.733 E.04336
G1 X186.125 Y169.458 E.04978
G1 X186.891 Y170.192 E.04675
G1 X187.61 Y170.974 E.04682
G1 X188.304 Y171.834 E.04872
G1 X188.906 Y172.689 E.04605
G1 X189.482 Y173.644 E.04918
G1 X189.659 Y174.068 E.02025
G1 X189.779 Y174.57 E.02274
G1 X189.81 Y175.021 E.01992
G1 X189.768 Y175.491 E.02081
G1 X189.659 Y175.931 E.02
G1 X189.547 Y176.22 E.01363
G1 X189.396 Y176.516 E.01467
G1 X188.926 Y177.28 E.03954
G1 X188.408 Y178.026 E.04
G1 X187.948 Y178.622 E.03321
G1 X187.265 Y179.415 E.04611
G1 X186.691 Y180.009 E.03641
G1 X185.866 Y180.769 E.04945
G1 X185.228 Y181.291 E.03631
G1 X184.532 Y181.803 E.03808
G1 X183.741 Y182.321 E.04167
G1 X183.023 Y182.738 E.0366
G1 X182.563 Y182.98 E.02292
G1 X181.582 Y183.439 E.04772
G1 X180.572 Y183.834 E.04781
G1 X179.626 Y184.136 E.04375
G1 X178.487 Y184.419 E.05175
G1 X177.301 Y184.626 E.05303
G1 X176.439 Y184.721 E.03822
G1 X175.908 Y184.757 E.02347
G1 X174.774 Y184.777 E.04998
G1 X174.039 Y184.748 E.03242
G1 X150.484 Y183.307 E1.0401
G1 X150.183 Y183.262 E.01341
G1 X149.784 Y183.158 E.01815
G1 X149.43 Y183.02 E.01675
G1 X149.048 Y182.817 E.01906
G1 X148.762 Y182.618 E.01537
G1 X148.409 Y182.302 E.02088
G1 X148.17 Y182.023 E.01618
G1 X147.963 Y181.723 E.01607
G1 X147.792 Y181.404 E.01596
G1 X147.621 Y180.963 E.02083
G1 X147.511 Y180.51 E.02054
G1 X147.459 Y180.051 E.02036
G1 X147.464 Y169.868 E.4488
G1 X147.509 Y169.5 E.01633
G1 X147.617 Y169.048 E.02051
G1 X147.787 Y168.608 E.02079
G1 X147.962 Y168.279 E.01643
G1 X148.225 Y167.907 E.02008
G1 X148.451 Y167.66 E.01474
G1 X148.781 Y167.959 F30000
G1 F6000
G1 X148.786 Y167.954 E.0003
G1 X149.023 Y167.745 E.01394
G1 X149.273 Y167.571 E.01342
G1 X149.628 Y167.382 E.01774
G1 X150 Y167.245 E.01748
G1 X150.362 Y167.161 E.01634
G1 X150.708 Y167.121 E.01538
G1 X174.074 Y165.697 E1.03169
G1 X175.295 Y165.669 E.05386
G1 X176.252 Y165.712 E.04221
G1 X177.147 Y165.804 E.03964
G1 X178.302 Y165.999 E.05162
G1 X179.232 Y166.219 E.04216
G1 X180.379 Y166.572 E.05285
G1 X181.255 Y166.907 E.04134
G1 X182.209 Y167.342 E.0462
G1 X183.207 Y167.88 E.05001
G1 X184.21 Y168.518 E.05236
G1 X184.98 Y169.082 E.04207
G1 X185.823 Y169.788 E.04849
G1 X186.569 Y170.501 E.04547
G1 X187.274 Y171.269 E.04593
G1 X187.95 Y172.107 E.04745
G1 X188.534 Y172.937 E.04473
G1 X189.087 Y173.855 E.04725
G1 X189.235 Y174.217 E.01724
G1 X189.337 Y174.649 E.01954
G1 X189.361 Y175.027 E.0167
G1 X189.324 Y175.427 E.01773
G1 X189.235 Y175.788 E.01638
G1 X189.136 Y176.043 E.01204
G1 X189.003 Y176.302 E.01283
G1 X188.55 Y177.039 E.03814
G1 X188.05 Y177.759 E.03865
G1 X187.6 Y178.343 E.03249
G1 X186.937 Y179.111 E.04469
G1 X186.376 Y179.692 E.03562
G1 X185.576 Y180.429 E.04795
G1 X184.957 Y180.936 E.03525
G1 X184.274 Y181.438 E.03735
G1 X183.504 Y181.942 E.04059
G1 X182.809 Y182.346 E.0354
G1 X182.367 Y182.579 E.02203
G1 X181.41 Y183.027 E.04655
G1 X180.427 Y183.412 E.04655
G1 X179.5 Y183.707 E.04287
G1 X178.39 Y183.983 E.05042
G1 X177.234 Y184.184 E.0517
G1 X176.402 Y184.276 E.03688
G1 X175.892 Y184.311 E.02254
G1 X174.775 Y184.33 E.04924
G1 X174.06 Y184.302 E.03155
G1 X150.525 Y182.862 E1.03921
G1 X150.266 Y182.822 E.01155
G1 X149.915 Y182.73 E.01599
G1 X149.609 Y182.61 E.01447
G1 X149.275 Y182.431 E.01671
G1 X149.033 Y182.262 E.01301
G1 X148.735 Y181.994 E.01764
G1 X148.529 Y181.756 E.0139
G1 X148.342 Y181.484 E.01456
G1 X148.195 Y181.209 E.01372
G1 X148.045 Y180.82 E.01835
G1 X147.95 Y180.424 E.01797
G1 X147.905 Y180.019 E.01797
G1 X147.912 Y169.887 E.44652
G1 X147.951 Y169.572 E.014
G1 X148.048 Y169.172 E.01813
G1 X148.19 Y168.801 E.01752
G1 X148.339 Y168.521 E.01397
G1 X148.569 Y168.194 E.01763
G1 X148.755 Y167.989 E.01219
G1 X149.081 Y168.294 F30000
G1 F6000
G1 X149.125 Y168.247 E.00286
G1 X149.384 Y168.033 E.01478
G1 X149.642 Y167.871 E.01342
G1 X150.118 Y167.677 E.02264
G1 X150.726 Y167.567 E.02723
G1 X174.14 Y166.141 E1.03385
G1 X175.092 Y166.115 E.04199
G1 X176.203 Y166.155 E.049
G1 X177.085 Y166.246 E.03908
G1 X177.93 Y166.38 E.03767
G1 X179.066 Y166.637 E.05134
G1 X179.98 Y166.908 E.04202
G1 X181.083 Y167.319 E.05188
G1 X182.012 Y167.742 E.04498
G1 X182.93 Y168.235 E.04595
G1 X183.752 Y168.746 E.04267
G1 X184.676 Y169.411 E.05016
G1 X185.526 Y170.121 E.04884
G1 X186.246 Y170.81 E.0439
G1 X186.934 Y171.558 E.04478
G1 X187.586 Y172.365 E.04572
G1 X188.166 Y173.19 E.04445
G1 X188.687 Y174.057 E.04459
G1 X188.842 Y174.462 E.01909
G1 X188.91 Y174.861 E.01785
G1 X188.887 Y175.33 E.02072
G1 X188.865 Y175.445 E.00513
G1 X188.702 Y175.913 E.02184
G1 X188.353 Y176.519 E.03083
G1 X187.9 Y177.204 E.0362
G1 X187.453 Y177.809 E.03312
G1 X187.042 Y178.317 E.02882
G1 X186.607 Y178.811 E.02901
G1 X186.086 Y179.351 E.03307
G1 X185.578 Y179.833 E.03089
G1 X184.975 Y180.351 E.035
G1 X184.372 Y180.819 E.03364
G1 X183.823 Y181.207 E.02962
G1 X183.244 Y181.578 E.03031
G1 X182.553 Y181.977 E.0352
G1 X181.704 Y182.407 E.04195
G1 X180.753 Y182.815 E.04559
G1 X179.772 Y183.159 E.04581
G1 X178.775 Y183.438 E.04561
G1 X177.757 Y183.651 E.04584
G1 X176.823 Y183.786 E.04162
G1 X175.803 Y183.868 E.0451
G1 X174.801 Y183.884 E.04415
G1 X174.093 Y183.857 E.03122
G1 X150.67 Y182.428 E1.03424
G1 X150.357 Y182.385 E.01392
