; HEADER_BLOCK_START
; generated by Creality_Print V5.1.2.9904 on 2024-08-08 at 17:31:35
; total layer number: 192
; filament_density: 1.24,1.24,1.24,1.24
; filament_diameter: 1.75,1.75,1.75,1.75
; max_z_height: 47.95
; HEADER_BLOCK_END

; MINX = 145.00
; MINY = 159.50
; MINZ = 0.00
; MAXX = 205.00
; MAXY = 190.50
; MAXZ = 48.00

; THUMBNAIL_BLOCK_START

;
; THUMBNAIL_BLOCK_END

; THUMBNAIL_BLOCK_START

;
; THUMBNAIL_BLOCK_END

; external perimeters extrusion width = 0.50mm
; perimeters extrusion width = 0.50mm
; infill extrusion width = 0.50mm
; solid infill extrusion width = 0.50mm
; top infill extrusion width = 0.42mm
; first layer extrusion width = 0.50mm

; external perimeters extrusion width = 0.50mm
; perimeters extrusion width = 0.50mm
; infill extrusion width = 0.50mm
; solid infill extrusion width = 0.50mm
; top infill extrusion width = 0.42mm
; first layer extrusion width = 0.50mm

; external perimeters extrusion width = 0.50mm
; perimeters extrusion width = 0.50mm
; infill extrusion width = 0.50mm
; solid infill extrusion width = 0.50mm
; top infill extrusion width = 0.42mm
; first layer extrusion width = 0.50mm

; external perimeters extrusion width = 0.50mm
; perimeters extrusion width = 0.50mm
; infill extrusion width = 0.50mm
; solid infill extrusion width = 0.50mm
; top infill extrusion width = 0.42mm
; first layer extrusion width = 0.50mm

; EXECUTABLE_BLOCK_START
EXCLUDE_OBJECT_DEFINE NAME=3DBenchy.stl_id_0_copy_0 CENTER=175,175 POLYGON=[[144.999,165.816],[145.002,165.755],[145.006,165.699],[145.009,165.671],[145.012,165.646],[145.013,165.63],[145.019,165.583],[145.028,165.525],[145.045,165.436],[145.058,165.379],[145.073,165.322],[145.08,165.296],[145.097,165.239],[145.126,165.155],[145.14,165.118],[145.162,165.064],[145.169,165.047],[145.185,165.01],[145.209,164.958],[145.221,164.935],[145.23,164.916],[145.263,164.854],[145.272,164.839],[145.279,164.827],[145.29,164.806],[145.34,164.727],[145.357,164.7],[145.365,164.689],[145.371,164.679],[145.406,164.631],[145.44,164.584],[145.483,164.531],[145.508,164.501],[145.525,164.482],[145.538,164.466],[145.578,164.423],[145.592,164.408],[145.6,164.4],[145.641,164.359],[145.661,164.34],[145.704,164.3],[145.737,164.271],[145.782,164.234],[145.789,164.229],[145.793,164.225],[145.828,164.197],[145.887,164.154],[145.935,164.121],[145.978,164.092],[146.044,164.052],[146.071,164.036],[146.123,164.008],[146.148,163.995],[146.176,163.981],[146.197,163.97],[146.253,163.944],[146.311,163.919],[146.361,163.899],[146.416,163.879],[146.428,163.875],[146.471,163.861],[146.484,163.857],[146.54,163.84],[146.547,163.838],[146.585,163.828],[146.596,163.825],[146.624,163.818],[146.64,163.814],[146.699,163.801],[146.71,163.799],[146.797,163.784],[174.812,159.886],[175.055,159.853],[175.299,159.821],[175.544,159.791],[175.883,159.752],[176.105,159.728],[176.35,159.702],[176.596,159.678],[176.842,159.656],[177.087,159.635],[177.253,159.622],[177.333,159.616],[177.523,159.602],[177.579,159.598],[177.827,159.581],[177.988,159.571],[178.072,159.566],[178.232,159.557],[178.49,159.544],[178.598,159.539],[178.62,159.538],[178.755,159.532],[178.906,159.526],[179.051,159.521],[179.167,159.517],[179.234,159.515],[179.342,159.512],[179.46,159.509],[179.548,159.507],[179.689,159.504],[179.881,159.501],[180.063,159.499],[180.18,159.498],[180.579,159.498],[180.934,159.5],[181.37,159.508],[181.449,159.51],[181.805,159.52],[181.913,159.524],[182.24,159.537],[182.677,159.558],[183.01,159.578],[183.093,159.583],[183.203,159.59],[183.376,159.602],[183.496,159.611],[183.641,159.622],[183.729,159.629],[183.91,159.644],[184.04,159.655],[184.833,159.78],[184.842,159.782],[185.27,159.888],[185.378,159.915],[185.596,159.97],[185.738,160.007],[185.814,160.027],[185.968,160.068],[186.249,160.145],[186.425,160.195],[186.68,160.27],[186.897,160.334],[187.111,160.4],[187.333,160.47],[187.559,160.543],[187.753,160.607],[188.008,160.694],[188.179,160.753],[188.232,160.772],[188.4,160.832],[188.602,160.905],[188.822,160.987],[189.033,161.067],[189.234,161.145],[189.344,161.188],[189.454,161.232],[189.663,161.316],[189.872,161.402],[189.927,161.425],[190.135,161.513],[190.342,161.603],[190.548,161.693],[190.753,161.786],[190.958,161.879],[191.161,161.974],[191.364,162.07],[191.566,162.168],[191.766,162.267],[191.968,162.367],[192.167,162.469],[192.366,162.572],[192.564,162.677],[192.762,162.783],[192.958,162.89],[193.154,162.999],[193.544,163.221],[193.738,163.334],[193.93,163.449],[194.123,163.565],[194.314,163.683],[194.506,163.801],[194.697,163.922],[194.886,164.043],[195.075,164.167],[195.262,164.291],[195.451,164.417],[195.637,164.544],[195.824,164.673],[196.008,164.803],[196.193,164.934],[196.377,165.067],[196.56,165.201],[196.743,165.337],[196.924,165.474],[197.105,165.612],[197.285,165.752],[197.464,165.893],[197.643,166.036],[197.821,166.18],[197.998,166.325],[198.174,166.472],[198.524,166.77],[198.697,166.921],[198.87,167.074],[199.042,167.228],[199.215,167.384],[199.329,167.489],[199.498,167.645],[199.666,167.803],[199.831,167.962],[199.997,168.122],[200.162,168.283],[200.325,168.445],[200.486,168.609],[200.648,168.773],[200.808,168.939],[200.967,169.106],[201.124,169.274],[201.282,169.443],[201.438,169.614],[201.593,169.785],[201.745,169.958],[201.899,170.132],[202.051,170.306],[202.201,170.483],[202.35,170.66],[202.499,170.838],[202.646,171.017],[202.792,171.198],[202.937,171.38],[203.081,171.563],[203.223,171.747],[203.365,171.932],[203.506,172.118],[203.646,172.305],[203.784,172.493],[203.921,172.683],[204.057,172.874],[204.192,173.065],[204.326,173.258],[204.459,173.452],[204.59,173.647],[204.619,173.692],[204.652,173.745],[204.683,173.798],[204.713,173.852],[204.742,173.907],[204.769,173.962],[204.794,174.019],[204.818,174.076],[204.835,174.117],[204.857,174.175],[204.877,174.233],[204.896,174.292],[204.913,174.351],[204.929,174.413],[204.943,174.47],[204.955,174.53],[204.967,174.593],[204.976,174.652],[204.984,174.713],[204.991,174.774],[204.995,174.836],[204.999,174.905],[205.001,174.966],[205.001,175.027],[204.999,175.088],[204.997,175.149],[204.992,175.209],[204.986,175.27],[204.978,175.331],[204.969,175.391],[204.959,175.449],[204.946,175.512],[204.933,175.569],[204.917,175.632],[204.902,175.686],[204.883,175.745],[204.864,175.803],[204.843,175.861],[204.821,175.918],[204.797,175.974],[204.772,176.03],[204.745,176.086],[204.717,176.14],[204.687,176.194],[204.656,176.248],[204.624,176.301],[204.59,176.353],[204.473,176.527],[204.34,176.721],[204.206,176.914],[204.072,177.106],[203.936,177.297],[203.798,177.487],[203.66,177.676],[203.521,177.864],[203.38,178.05],[203.238,178.236],[203.094,178.42],[202.951,178.604],[202.659,178.968],[202.511,179.148],[202.361,179.328],[202.21,179.506],[202.06,179.683],[201.907,179.86],[201.753,180.035],[201.598,180.209],[201.482,180.337],[201.326,180.509],[201.167,180.68],[201.008,180.85],[200.848,181.018],[200.688,181.186],[200.525,181.352],[200.363,181.516],[200.2,181.68],[199.87,182.002],[199.704,182.161],[199.536,182.319],[199.368,182.475],[199.199,182.63],[199.029,182.784],[198.857,182.937],[198.686,183.089],[198.512,183.239],[198.339,183.388],[198.163,183.536],[197.988,183.682],[197.811,183.827],[197.633,183.971],[197.455,184.114],[197.275,184.256],[197.094,184.396],[196.912,184.535],[196.729,184.673],[196.545,184.81],[196.36,184.945],[196.174,185.08],[195.8,185.344],[195.611,185.474],[195.421,185.603],[195.231,185.731],[195.038,185.857],[194.847,185.982],[194.653,186.106],[194.459,186.228],[194.264,186.349],[194.067,186.469],[193.87,186.587],[193.672,186.704],[193.473,186.819],[193.273,186.934],[193.072,187.046],[192.87,187.158],[192.594,187.307],[192.396,187.412],[192.197,187.516],[191.997,187.618],[191.796,187.719],[191.594,187.818],[191.393,187.916],[191.191,188.012],[190.988,188.107],[190.783,188.2],[190.58,188.292],[190.374,188.383],[190.17,188.472],[189.964,188.559],[189.757,188.645],[189.667,188.682],[189.55,188.73],[189.342,188.813],[189.123,188.898],[189.003,188.944],[188.705,189.057],[188.494,189.134],[188.294,189.206],[188.072,189.284],[187.885,189.348],[187.87,189.353],[187.657,189.424],[187.443,189.494],[187.206,189.57],[187.006,189.632],[186.98,189.64],[186.752,189.709],[186.524,189.776],[186.296,189.841],[186.143,189.884],[186.066,189.905],[185.925,189.943],[185.706,190.001],[185.607,190.027],[185.489,190.057],[185.27,190.112],[184.844,190.218],[184.317,190.319],[184.307,190.32],[184.051,190.344],[184.003,190.348],[183.811,190.364],[183.726,190.371],[183.562,190.384],[183.482,190.39],[183.135,190.414],[182.689,190.441],[182.65,190.443],[182.264,190.462],[182.229,190.464],[182.127,190.468],[181.779,190.481],[181.565,190.487],[181.344,190.493],[180.908,190.5],[180.521,190.502],[180.178,190.502],[179.878,190.499],[179.822,190.498],[179.6,190.494],[179.456,190.491],[179.339,190.488],[179.167,190.483],[179.077,190.48],[178.93,190.475],[178.753,190.468],[178.728,190.467],[178.57,190.46],[178.462,190.455],[178.333,190.448],[178.133,190.437],[177.889,190.423],[177.644,190.407],[177.63,190.406],[177.342,190.385],[177.096,190.366],[176.85,190.345],[176.667,190.328],[176.603,190.322],[176.423,190.305],[176.18,190.28],[176.111,190.273],[175.935,190.254],[175.62,190.218],[175.374,190.188],[175.204,190.166],[174.883,190.124],[146.827,186.22],[146.792,186.215],[146.742,186.207],[146.685,186.196],[146.653,186.189],[146.596,186.175],[146.584,186.172],[146.547,186.162],[146.536,186.159],[146.48,186.142],[146.428,186.125],[146.416,186.121],[146.361,186.101],[146.311,186.081],[146.253,186.056],[146.197,186.03],[146.155,186.009],[146.104,185.982],[146.086,185.972],[146.068,185.962],[146.044,185.948],[145.992,185.917],[145.986,185.913],[145.978,185.908],[145.943,185.885],[145.935,185.879],[145.886,185.846],[145.848,185.817],[145.844,185.814],[145.84,185.811],[145.793,185.775],[145.755,185.744],[145.752,185.741],[145.748,185.738],[145.704,185.7],[145.661,185.66],[145.64,185.64],[145.592,185.592],[145.557,185.555],[145.549,185.546],[145.538,185.534],[145.527,185.521],[145.518,185.511],[145.48,185.466],[145.462,185.443],[145.444,185.42],[145.438,185.412],[145.43,185.402],[145.42,185.388],[145.406,185.37],[145.372,185.322],[145.357,185.3],[145.342,185.278],[145.327,185.253],[145.308,185.224],[145.278,185.173],[145.25,185.122],[145.24,185.101],[145.23,185.084],[145.223,185.07],[145.219,185.06],[145.195,185.012],[145.169,184.954],[145.148,184.903],[145.127,184.849],[145.108,184.792],[145.107,184.79],[145.098,184.762],[145.091,184.738],[145.074,184.682],[145.06,184.625],[145.045,184.564],[145.034,184.507],[145.025,184.454],[145.025,184.451],[145.024,184.448],[145.02,184.42],[145.016,184.396],[145.011,184.353],[145.01,184.338],[145.008,184.325],[145.002,184.245],[145,184.208],[145,184.194],[144.999,184.179],[144.999,165.816]]
M73 P0 R19
M106 S0
M106 P2 S0
;TYPE:Custom
M140 S0
M104 S0 
START_PRINT EXTRUDER_TEMP=220 BED_TEMP=50
T2
M204 S2000
G1 Z3 F600
M83
G1 Y150 F12000
G1 X0 F12000
G1 Z0.2 F600
G1 X0 Y150 F6000
G1 X0 Y0 E15 F6000
G1 X150 Y0 E15 F6000
G92 E0
G1 Z1 F600
M141 S35;set chamber_temperature
G90
G21
M83 ; use relative distances for extrusion
T2
; filament start gcode
G1 Z.2 F30000
M106 S0
;LAYER_CHANGE
;Z:0.2
;HEIGHT:0.2
;BEFORE_LAYER_CHANGE
;0.2
G92 E0

;_SET_FAN_SPEED_CHANGING_LAYER
SET_VELOCITY_LIMIT ACCEL=10000 ACCEL_TO_DECEL=10000
SET_VELOCITY_LIMIT SQUARE_CORNER_VELOCITY=20
G1 E-.8 F2400
G1 Z.4 F30000
G1 X221.226 Y209.309
G1 Z.4
G1 Z.2
G1 E.8 F2400
; LAYER_HEIGHT: 0.2
; FEATURE: Prime tower
; LINE_WIDTH: 0.5
G1  X221.226 Y223.209  E0.5283 F6000
G1  X202.226  E0.7221
G1  Y209.309  E0.5283
G1  X221.226  E0.7221
G1  Y223.209 
G1  X220.226 
;--------------------
; CP EMPTY GRID START
; layer #1
G1  Y222.709  E0.0190
G1  X202.726  E0.6651
G1  Y222.193  E0.0196
G1  X220.726  E0.6841
G1  Y221.677  E0.0196
G1  X202.726  E0.6841
G1  Y221.161  E0.0196
G1  X220.726  E0.6841
G1  Y220.645  E0.0196
G1  X202.726  E0.6841
G1  Y220.129  E0.0196
G1  X220.726  E0.6841
G1  Y219.613  E0.0196
G1  X202.726  E0.6841
G1  Y219.097  E0.0196
G1  X220.726  E0.6841
G1  Y218.581  E0.0196
G1  X202.726  E0.6841
G1  Y218.065  E0.0196
G1  X220.726  E0.6841
G1  Y217.549  E0.0196
G1  X202.726  E0.6841
G1  Y217.033  E0.0196
G1  X220.726  E0.6841
G1  Y216.517  E0.0196
G1  X202.726  E0.6841
G1  Y216.001  E0.0196
G1  X220.726  E0.6841
G1  Y215.485  E0.0196
G1  X202.726  E0.6841
G1  Y214.969  E0.0196
G1  X220.726  E0.6841
G1  Y214.453  E0.0196
G1  X202.726  E0.6841
G1  Y213.937  E0.0196
G1  X220.726  E0.6841
G1  Y213.421  E0.0196
G1  X202.726  E0.6841
G1  Y212.905  E0.0196
G1  X220.726  E0.6841
G1  Y212.389  E0.0196
G1  X202.726  E0.6841
G1  Y211.873  E0.0196
G1  X220.726  E0.6841
G1  Y211.357  E0.0196
G1  X202.726  E0.6841
G1  Y210.841  E0.0196
G1  X220.726  E0.6841
G1  Y210.325  E0.0196
G1  X202.726  E0.6841
G1  Y209.809  E0.0196
G1  X220.726  E0.6841
G1  Y209.309  E0.0190
; CP EMPTY GRID END
;------------------






G1  X221.726 Y208.809  
G1  Y223.709  E0.5663
G1  X201.726  E0.7601
G1  Y208.809  E0.5663
G1  X221.726  E0.7601
G1  X222.183 Y208.352  
G1  Y224.166  E0.6010
M73 P1 R19
G1  X201.269  E0.7949
G1  Y208.352  E0.6010
G1  X222.183  E0.7949
G1  X222.640 Y207.895  
G1  Y224.623  E0.6358
G1  X200.812  E0.8296
G1  Y207.895  E0.6358
G1  X222.640  E0.8296
G1  X223.097 Y207.438  
G1  Y225.080  E0.6705
G1  X200.355  E0.8644
G1  Y207.438  E0.6705
G1  X223.097  E0.8644
G1  X223.554 Y206.981  
G1  Y225.537  E0.7053
G1  X199.898  E0.8991
G1  Y206.981  E0.7053
G1  X223.554  E0.8991
G1  X224.011 Y206.524  
G1  Y225.994  E0.7400
G1  X199.441  E0.9338
G1  Y206.524  E0.7400
G1  X224.011  E0.9338
G1  X224.468 Y206.067  
G1  Y226.451  E0.7748
G1  X198.984  E0.9686
G1  Y206.067  E0.7748
G1  X224.468  E0.9686
G1  X224.926 Y205.609  
G1  Y226.909  E0.8095
G1  X198.526  E1.0033
G1  Y205.609  E0.8095
G1  X224.926  E1.0033

G1 E-.56 F2400
;WIPE_START
G1 F3600
G1 X223.926 Y205.609 E-.24
;WIPE_END
EXCLUDE_OBJECT_START NAME=3DBenchy.stl_id_0_copy_0
G1 X220.911 Y203.269 Z.4 F30000
G1 X188.412 Y178.041 Z.4
G1 Z.2
G1 E.8 F2400
;TYPE:Brim
;WIDTH:0.5
;HEIGHT:0.2
G1 F6000
G1 X187.951 Y178.639 E.02725
G1 X187.27 Y179.43 E.03768
G1 X186.696 Y180.024 E.02982
G1 X185.871 Y180.784 E.04051
G1 X185.235 Y181.306 E.02972
G1 X184.538 Y181.819 E.03122
G1 X183.839 Y182.28 E.03024
G1 X182.859 Y182.847 E.04089
G1 X182.085 Y183.235 E.03126
G1 X181.592 Y183.455 E.01949
G1 X180.578 Y183.852 E.03932
G1 X179.635 Y184.153 E.03574
G1 X178.496 Y184.437 E.04237
G1 X177.307 Y184.645 E.04358
G1 X176.447 Y184.74 E.03123
G1 X175.914 Y184.776 E.0193
G1 X174.776 Y184.796 E.04112
G1 X174.044 Y184.768 E.02644
G1 X150.49 Y183.331 E.85203
G1 X150.187 Y183.286 E.01106
G1 X149.783 Y183.18 E.01506
G1 X149.417 Y183.037 E.01418
G1 X149.043 Y182.837 E.01532
G1 X148.752 Y182.636 E.01278
G1 X148.399 Y182.32 E.01709
G1 X148.152 Y182.034 E.01365
G1 X147.945 Y181.732 E.01325
G1 X147.77 Y181.406 E.01334
G1 X147.597 Y180.961 E.01725
G1 X147.486 Y180.507 E.01687
G1 X147.434 Y180.041 E.01691
G1 X147.439 Y169.879 E.36692
G1 X147.485 Y169.502 E.01371
G1 X147.593 Y169.051 E.01676
G1 X147.764 Y168.605 E.01722
G1 X147.945 Y168.267 E.01386
G1 X148.21 Y167.894 E.01652
G1 X148.465 Y167.615 E.01366
G1 X148.733 Y167.379 E.01286
G1 X149.029 Y167.171 E.01307
G1 X149.451 Y166.948 E.01724
G1 X149.88 Y166.791 E.01647
G1 X150.29 Y166.697 E.0152
G1 X150.676 Y166.652 E.01405
G1 X174.058 Y165.231 E.84577
G1 X175.101 Y165.202 E.03766
G1 X176.228 Y165.243 E.04071
G1 X177.21 Y165.342 E.03567
G1 X178.401 Y165.543 E.04361
G1 X179.355 Y165.77 E.03539
G1 X180.249 Y166.036 E.03366
G1 X181.411 Y166.468 E.04477
G1 X182.366 Y166.901 E.03784
G1 X183.395 Y167.452 E.04218
G1 X184.237 Y167.976 E.03577
G1 X185.264 Y168.717 E.04572
G1 X186.129 Y169.442 E.04078
G1 X186.894 Y170.174 E.03822
G1 X187.614 Y170.958 E.03844
G1 X188.307 Y171.818 E.03989
G1 X188.91 Y172.674 E.03779
G1 X189.486 Y173.629 E.04026
G1 X189.665 Y174.06 E.01683
G1 X189.785 Y174.566 E.01879
G1 X189.817 Y174.948 E.01385
G1 X189.792 Y175.381 E.01564
G1 X189.704 Y175.81 E.0158
G1 X189.551 Y176.233 E.01625
