; HEADER_BLOCK_START
; generated by Creality_Print V6.0.1.1375 on 2025-01-13 at 18:15:35
; total layer number: 192
; filament_density: 1.24
; filament_diameter: 1.75
; max_z_height: 47.95
; HEADER_BLOCK_END

; MINX = 145.00
; MINY = 159.50
; MINZ = 0.00
; MAXX = 205.00
; MAXY = 190.50
; MAXZ = 48.00

; THUMBNAIL_BLOCK_START

;
; THUMBNAIL_BLOCK_END

; THUMBNAIL_BLOCK_START

;
; THUMBNAIL_BLOCK_END

; external perimeters extrusion width = 0.50mm
; perimeters extrusion width = 0.50mm
; infill extrusion width = 0.50mm
; solid infill extrusion width = 0.50mm
; top infill extrusion width = 0.42mm
; first layer extrusion width = 0.50mm

; EXECUTABLE_BLOCK_START
EXCLUDE_OBJECT_DEFINE NAME=3DBenchy.stl_id_0_copy_0 CENTER=175,175 POLYGON=[[145,165.816],[145.002,165.755],[145.007,165.699],[145.012,165.646],[145.014,165.63],[145.02,165.583],[145.028,165.525],[145.046,165.436],[145.058,165.379],[145.074,165.322],[145.081,165.296],[145.097,165.239],[145.126,165.155],[145.141,165.118],[145.162,165.064],[145.169,165.047],[145.186,165.01],[145.209,164.958],[145.231,164.916],[145.264,164.854],[145.278,164.827],[145.291,164.806],[145.34,164.727],[145.357,164.7],[145.371,164.679],[145.405,164.631],[145.44,164.584],[145.484,164.531],[145.508,164.501],[145.539,164.466],[145.578,164.423],[145.592,164.408],[145.6,164.4],[145.641,164.359],[145.661,164.34],[145.704,164.3],[145.737,164.271],[145.783,164.234],[145.793,164.225],[145.828,164.197],[145.887,164.154],[145.935,164.121],[145.979,164.092],[146.044,164.052],[146.071,164.036],[146.124,164.008],[146.148,163.995],[146.175,163.981],[146.197,163.97],[146.253,163.944],[146.312,163.919],[146.362,163.899],[146.417,163.879],[146.429,163.875],[146.472,163.861],[146.485,163.857],[146.541,163.84],[146.548,163.838],[146.584,163.828],[146.597,163.825],[146.625,163.818],[146.641,163.814],[146.71,163.799],[146.739,163.794],[146.769,163.789],[146.798,163.784],[174.813,159.886],[175.055,159.853],[175.299,159.821],[175.543,159.791],[175.882,159.752],[176.105,159.728],[176.35,159.702],[176.596,159.678],[176.842,159.656],[177.087,159.635],[177.253,159.622],[177.333,159.616],[177.523,159.602],[177.579,159.598],[177.826,159.581],[177.987,159.571],[178.071,159.566],[178.232,159.557],[178.489,159.544],[178.597,159.539],[178.619,159.538],[178.755,159.532],[178.906,159.526],[179.05,159.521],[179.167,159.517],[179.233,159.515],[179.342,159.512],[179.46,159.509],[179.548,159.507],[179.689,159.504],[179.881,159.501],[180.063,159.499],[180.18,159.498],[180.578,159.498],[180.934,159.5],[181.369,159.508],[181.45,159.51],[181.805,159.52],[181.912,159.524],[182.24,159.537],[182.677,159.558],[183.009,159.578],[183.092,159.583],[183.202,159.59],[183.375,159.602],[183.495,159.611],[183.641,159.622],[183.728,159.629],[183.909,159.644],[184.04,159.655],[184.832,159.78],[184.841,159.782],[185.269,159.888],[185.377,159.915],[185.595,159.97],[185.737,160.007],[185.813,160.027],[185.967,160.068],[186.248,160.145],[186.424,160.195],[186.68,160.27],[186.896,160.334],[187.111,160.4],[187.332,160.47],[187.558,160.543],[187.752,160.607],[188.008,160.694],[188.178,160.753],[188.232,160.772],[188.4,160.832],[188.601,160.905],[188.822,160.987],[189.033,161.067],[189.233,161.145],[189.343,161.188],[189.443,161.228],[189.453,161.232],[189.662,161.316],[189.871,161.402],[189.927,161.425],[190.134,161.513],[190.341,161.603],[190.547,161.693],[190.957,161.879],[191.16,161.974],[191.363,162.07],[191.565,162.168],[191.766,162.267],[191.967,162.367],[192.166,162.469],[192.366,162.572],[192.563,162.677],[192.762,162.783],[192.957,162.89],[193.153,162.999],[193.348,163.11],[193.543,163.221],[193.737,163.334],[193.93,163.449],[194.123,163.565],[194.314,163.683],[194.505,163.801],[194.696,163.922],[194.885,164.043],[195.075,164.167],[195.262,164.291],[195.451,164.417],[195.637,164.544],[195.824,164.673],[196.008,164.803],[196.193,164.934],[196.376,165.067],[196.56,165.201],[196.742,165.337],[196.923,165.474],[197.104,165.612],[197.284,165.752],[197.463,165.893],[197.642,166.036],[197.82,166.18],[197.998,166.325],[198.173,166.472],[198.523,166.77],[198.697,166.921],[198.87,167.074],[199.042,167.228],[199.214,167.384],[199.328,167.489],[199.498,167.645],[199.665,167.803],[199.832,167.962],[199.996,168.122],[200.161,168.283],[200.325,168.445],[200.486,168.609],[200.647,168.773],[200.807,168.939],[200.966,169.106],[201.124,169.274],[201.282,169.443],[201.438,169.614],[201.592,169.785],[201.745,169.958],[201.898,170.132],[202.05,170.306],[202.2,170.483],[202.349,170.66],[202.498,170.838],[202.645,171.017],[202.791,171.198],[202.936,171.38],[203.081,171.563],[203.223,171.747],[203.364,171.932],[203.505,172.118],[203.645,172.305],[203.784,172.493],[203.921,172.683],[204.056,172.874],[204.192,173.065],[204.325,173.258],[204.458,173.452],[204.589,173.647],[204.618,173.692],[204.651,173.745],[204.682,173.798],[204.713,173.852],[204.742,173.907],[204.769,173.962],[204.819,174.076],[204.834,174.117],[204.856,174.175],[204.876,174.233],[204.895,174.292],[204.912,174.351],[204.929,174.413],[204.943,174.47],[204.954,174.53],[204.966,174.593],[204.975,174.652],[204.984,174.713],[204.991,174.774],[204.995,174.836],[204.998,174.905],[205,174.966],[205,175.027],[204.999,175.088],[204.996,175.149],[204.992,175.209],[204.986,175.27],[204.977,175.331],[204.968,175.391],[204.958,175.449],[204.945,175.512],[204.932,175.569],[204.916,175.632],[204.901,175.686],[204.883,175.745],[204.863,175.803],[204.842,175.861],[204.82,175.918],[204.797,175.974],[204.771,176.03],[204.744,176.086],[204.716,176.14],[204.686,176.194],[204.655,176.248],[204.623,176.301],[204.589,176.353],[204.472,176.527],[204.339,176.721],[204.206,176.914],[204.071,177.106],[203.936,177.297],[203.797,177.487],[203.659,177.676],[203.52,177.864],[203.38,178.05],[203.237,178.236],[203.095,178.42],[202.95,178.604],[202.659,178.968],[202.51,179.148],[202.361,179.328],[202.21,179.506],[202.06,179.683],[201.907,179.86],[201.752,180.035],[201.597,180.209],[201.482,180.337],[201.325,180.509],[201.167,180.68],[201.008,180.85],[200.848,181.018],[200.688,181.186],[200.526,181.352],[200.2,181.68],[200.034,181.841],[199.869,182.002],[199.703,182.161],[199.535,182.319],[199.367,182.475],[199.199,182.63],[199.028,182.784],[198.857,182.937],[198.686,183.089],[198.512,183.239],[198.338,183.388],[198.164,183.536],[197.987,183.682],[197.811,183.827],[197.632,183.971],[197.454,184.114],[197.275,184.256],[197.093,184.396],[196.911,184.535],[196.728,184.673],[196.544,184.81],[196.359,184.945],[196.173,185.08],[195.799,185.344],[195.611,185.474],[195.421,185.603],[195.23,185.731],[195.039,185.857],[194.846,185.982],[194.653,186.106],[194.458,186.228],[194.263,186.349],[194.067,186.469],[193.869,186.587],[193.672,186.704],[193.472,186.819],[193.272,186.934],[193.072,187.046],[192.87,187.158],[192.595,187.307],[192.395,187.412],[192.196,187.516],[191.996,187.618],[191.796,187.719],[191.595,187.818],[191.392,187.916],[191.19,188.012],[190.987,188.107],[190.783,188.2],[190.579,188.292],[190.374,188.383],[190.169,188.472],[189.963,188.559],[189.756,188.645],[189.666,188.682],[189.549,188.73],[189.341,188.813],[189.122,188.898],[189.003,188.944],[188.704,189.057],[188.493,189.134],[188.293,189.206],[188.071,189.284],[187.884,189.348],[187.869,189.353],[187.656,189.424],[187.443,189.494],[187.207,189.57],[187.005,189.632],[186.979,189.64],[186.751,189.709],[186.523,189.776],[186.295,189.841],[186.142,189.884],[186.065,189.905],[185.924,189.943],[185.707,190.001],[185.606,190.027],[185.488,190.057],[185.269,190.112],[184.843,190.218],[184.316,190.319],[184.306,190.32],[184.05,190.344],[184.003,190.348],[183.81,190.364],[183.725,190.371],[183.561,190.384],[183.481,190.39],[183.134,190.414],[182.688,190.441],[182.649,190.443],[182.264,190.462],[182.126,190.468],[181.778,190.481],[181.564,190.487],[181.344,190.493],[180.907,190.5],[180.522,190.502],[180.177,190.502],[179.877,190.499],[179.821,190.498],[179.599,190.494],[179.457,190.491],[179.338,190.488],[179.166,190.483],[179.076,190.48],[178.93,190.475],[178.752,190.468],[178.728,190.467],[178.57,190.46],[178.463,190.455],[178.332,190.448],[178.133,190.437],[177.889,190.423],[177.644,190.407],[177.629,190.406],[177.342,190.385],[177.096,190.366],[176.849,190.345],[176.667,190.328],[176.603,190.322],[176.423,190.305],[176.179,190.28],[176.111,190.273],[175.935,190.254],[175.619,190.218],[175.373,190.188],[175.204,190.166],[174.882,190.124],[146.827,186.22],[146.792,186.215],[146.743,186.207],[146.686,186.196],[146.653,186.189],[146.597,186.175],[146.584,186.172],[146.548,186.162],[146.536,186.159],[146.481,186.142],[146.429,186.125],[146.417,186.121],[146.362,186.101],[146.312,186.081],[146.253,186.056],[146.197,186.03],[146.155,186.009],[146.105,185.982],[146.086,185.972],[146.044,185.948],[145.993,185.917],[145.979,185.908],[145.944,185.885],[145.935,185.879],[145.887,185.846],[145.847,185.817],[145.84,185.811],[145.793,185.775],[145.756,185.744],[145.749,185.738],[145.704,185.7],[145.661,185.66],[145.641,185.64],[145.592,185.592],[145.557,185.555],[145.539,185.534],[145.519,185.511],[145.481,185.466],[145.445,185.42],[145.431,185.402],[145.41,185.374],[145.407,185.37],[145.373,185.322],[145.357,185.3],[145.342,185.278],[145.308,185.224],[145.278,185.173],[145.25,185.122],[145.231,185.084],[145.218,185.06],[145.195,185.012],[145.169,184.954],[145.148,184.903],[145.127,184.849],[145.109,184.793],[145.107,184.79],[145.09,184.738],[145.075,184.682],[145.06,184.625],[145.046,184.564],[145.035,184.507],[145.026,184.454],[145.025,184.448],[145.016,184.396],[145.012,184.353],[145.008,184.325],[145.002,184.245],[145,184.208],[145,184.179],[145,165.816]]
M73 P0 R21
M106 S0
M106 P2 S0
;TYPE:Custom
M141 S35;set chamber_temperature
M140 S0
M104 S0 
START_PRINT EXTRUDER_TEMP=220 BED_TEMP=50
T0
M104 S220
M204 S2000
G1 Z3 F600
M83
G1 Y150 F12000
G1 X0 F12000
G1 Z0.2 F600
G1 X0 Y150 F6000
G1 X0 Y0 E15 F6000
G1 X150 Y0 E15 F6000
G92 E0
G1 Z1 F600
G90
G21
M83 ; use relative distances for extrusion
G1 E-.8 F2400
M106 P2 S255
M106 S0
;LAYER_CHANGE
;Z:0.2
;HEIGHT:0.2
;BEFORE_LAYER_CHANGE
;0.2
G92 E0

;_SET_FAN_SPEED_CHANGING_LAYER
SET_VELOCITY_LIMIT ACCEL=10000 ACCEL_TO_DECEL=10000
SET_VELOCITY_LIMIT SQUARE_CORNER_VELOCITY=20
EXCLUDE_OBJECT_START NAME=3DBenchy.stl_id_0_copy_0
G1 Z.2 F30000
G1 X148.326 Y167.471
G1 E.8 F2400
;TYPE:Brim
;WIDTH:0.5
G1 F6000
G1 X148.622 Y167.213 E.01416
G1 X148.975 Y166.969 E.01549
G1 X149.417 Y166.744 E.01792
G1 X149.821 Y166.6 E.01546
G1 X150.209 Y166.507 E.01441
G1 X150.638 Y166.454 E.01559
G1 X174.045 Y165.032 E.84672
G1 X175.299 Y165.003 E.04528
G1 X176.281 Y165.046 E.03547
G1 X177.243 Y165.144 E.03492
G1 X178.44 Y165.347 E.04385
G1 X179.412 Y165.578 E.03606
G1 X180.598 Y165.944 E.0448
G1 X181.514 Y166.294 E.03544
G1 X182.494 Y166.741 E.03889
G1 X183.534 Y167.302 E.04263
G1 X184.582 Y167.968 E.04485
G1 X185.383 Y168.556 E.03585
G1 X186.261 Y169.291 E.04136
G1 X187.035 Y170.033 E.03872
G1 X187.764 Y170.825 E.03886
G1 X188.465 Y171.695 E.04034
G1 X189.076 Y172.562 E.0383
G1 X189.404 Y173.082 E.02219
G1 X189.665 Y173.54 E.01903
G1 X189.828 Y173.917 E.01484
G1 X189.964 Y174.429 E.01911
G1 X190.016 Y174.89 E.01677
G1 X190 Y175.33 E.01587
G1 X189.93 Y175.737 E.01493
G1 X189.794 Y176.173 E.01647
G1 X189.606 Y176.572 E.01593
G1 X189.282 Y177.114 E.02281
G1 X188.791 Y177.857 E.03215
G1 X188.134 Y178.731 E.03949
G1 X187.61 Y179.351 E.02928
G1 X186.996 Y180.008 E.03249
G1 X186.333 Y180.644 E.03318
G1 X185.651 Y181.23 E.03245
G1 X185.006 Y181.73 E.02946
G1 X184.059 Y182.378 E.04143
G1 X182.999 Y182.999 E.04437
G1 X182.126 Y183.436 E.03524
G1 X181.099 Y183.873 E.04029
G1 X180.586 Y184.061 E.01975
G1 X179.693 Y184.344 E.03379
G1 X178.512 Y184.638 E.04395
G1 X177.357 Y184.84 E.04235
G1 X176.467 Y184.939 E.03232
G1 X175.927 Y184.976 E.01954
G1 X174.776 Y184.996 E.04158
G1 X174.034 Y184.967 E.02681
G1 X150.423 Y183.525 E.85407
G1 X150.057 Y183.461 E.01343
G1 X149.645 Y183.345 E.01545
G1 X149.225 Y183.167 E.01646
G1 X148.847 Y182.95 E.01575
G1 X148.553 Y182.733 E.0132
G1 X148.211 Y182.413 E.01691
G1 X147.961 Y182.113 E.01411
G1 X147.747 Y181.791 E.01397
G1 X147.511 Y181.314 E.0192
G1 X147.369 Y180.897 E.01592
G1 X147.269 Y180.416 E.01773
G1 X147.233 Y180.041 E.01358
G1 X147.24 Y169.853 E.36786
G1 X147.296 Y169.42 E.01576
G1 X147.402 Y168.99 E.01601
G1 X147.535 Y168.629 E.0139
G1 X147.75 Y168.203 E.01723
G1 X148.014 Y167.818 E.01683
G1 X148.3 Y167.5 E.01544
G1 X148.64 Y167.806 F30000
G1 F6000
G1 X148.642 Y167.803 E.00015
G1 X148.909 Y167.57 E.01279
G1 X149.217 Y167.359 E.01349
G1 X149.591 Y167.169 E.01512
G1 X149.944 Y167.042 E.01356
G1 X150.298 Y166.957 E.01314
G1 X150.684 Y166.909 E.01403
G1 X174.062 Y165.489 E.84565
G1 X175.299 Y165.461 E.04468
G1 X176.251 Y165.502 E.03442
G1 X177.185 Y165.598 E.0339
G1 X178.345 Y165.795 E.04245
G1 X179.296 Y166.021 E.03531
G1 X180.444 Y166.375 E.04338
G1 X181.334 Y166.715 E.03439
G1 X182.295 Y167.153 E.03814
G1 X183.306 Y167.699 E.0415
G1 X184.32 Y168.343 E.04337
G1 X185.097 Y168.913 E.03478
G1 X185.952 Y169.629 E.04028
G1 X186.706 Y170.35 E.03765
G1 X187.42 Y171.127 E.03812
G1 X188.103 Y171.974 E.03928
G1 X188.699 Y172.821 E.03741
G1 X189.25 Y173.735 E.03851
G1 X189.397 Y174.077 E.01347
G1 X189.511 Y174.503 E.01592
G1 X189.557 Y174.898 E.01433
G1 X189.543 Y175.292 E.01423
G1 X189.482 Y175.638 E.01271
G1 X189.363 Y176.015 E.01427
G1 X189.199 Y176.363 E.01389
G1 X188.894 Y176.874 E.02147
G1 X188.415 Y177.597 E.03131
G1 X187.779 Y178.443 E.03823
G1 X187.266 Y179.049 E.02865
G1 X186.668 Y179.689 E.03164
G1 X186.028 Y180.303 E.03202
G1 X185.359 Y180.878 E.03184
G1 X184.734 Y181.362 E.02856
G1 X183.81 Y181.994 E.0404
G1 X182.784 Y182.594 E.04292
G1 X181.93 Y183.022 E.0345
G1 X180.927 Y183.449 E.03934
G1 X180.435 Y183.629 E.01896
G1 X179.565 Y183.905 E.03295
G1 X178.422 Y184.189 E.04251
G1 X177.288 Y184.388 E.04158
G1 X176.429 Y184.483 E.03119
G1 X175.911 Y184.519 E.01875
G1 X174.777 Y184.539 E.04097
G1 X174.055 Y184.511 E.02608
G1 X150.484 Y183.071 E.85264
G1 X150.151 Y183.013 E.01219
G1 X149.789 Y182.909 E.01361
G1 X149.437 Y182.76 E.01382
G1 X149.104 Y182.57 E.01384
G1 X148.839 Y182.376 E.01186
G1 X148.551 Y182.105 E.01429
G1 X148.333 Y181.845 E.01225
G1 X148.148 Y181.569 E.01198
G1 X147.938 Y181.147 E.01703
G1 X147.814 Y180.784 E.01384
G1 X147.723 Y180.355 E.01585
G1 X147.69 Y180.013 E.01239
G1 X147.698 Y169.874 E.36609
G1 X147.748 Y169.497 E.01373
G1 X147.843 Y169.117 E.01414
G1 X147.958 Y168.804 E.01205
G1 X148.15 Y168.429 E.01521
G1 X148.38 Y168.095 E.01464
G1 X148.613 Y167.836 E.01259
G1 X148.95 Y168.141 F30000
G1 F6000
G1 X149.518 Y167.713 E.02569
G1 X149.817 Y167.569 E.01196
G1 X150.078 Y167.478 E.00998
G1 X150.725 Y167.365 E.02372
G1 X174.129 Y165.943 E.8466
G1 X175.097 Y165.917 E.03496
G1 X176.23 Y165.959 E.04092
G1 X177.106 Y166.048 E.0318
G1 X177.956 Y166.183 E.03108
G1 X179.122 Y166.447 E.04315
G1 X180.043 Y166.721 E.03468
G1 X181.173 Y167.143 E.04356
G1 X182.098 Y167.565 E.03672
G1 X183.022 Y168.062 E.0379
G1 X183.857 Y168.582 E.03549
G1 X184.804 Y169.264 E.04214
G1 X185.648 Y169.971 E.03975
G1 X186.375 Y170.666 E.03631
G1 X187.076 Y171.428 E.03738
G1 X187.742 Y172.255 E.03836
G1 X188.32 Y173.078 E.03629
G1 X188.83 Y173.919 E.0355
G1 X189.036 Y174.47 E.02125
G1 X189.094 Y174.849 E.01385
G1 X189.073 Y175.345 E.01792
G1 X188.965 Y175.771 E.01585
G1 X188.81 Y176.121 E.01383
G1 X188.305 Y176.947 E.03497
G1 X187.84 Y177.614 E.02937
G1 X187.404 Y178.18 E.02576
G1 X186.919 Y178.753 E.02712
G1 X186.352 Y179.359 E.02997
G1 X185.958 Y179.744 E.01989
G1 X185.394 Y180.253 E.02742
G1 X184.789 Y180.748 E.02823
G1 X184.147 Y181.221 E.0288
G1 X183.564 Y181.609 E.02526
G1 X182.771 Y182.081 E.03333
G1 X181.757 Y182.599 E.04113
G1 X180.797 Y183.009 E.03768
G1 X179.839 Y183.345 E.03665
G1 X178.788 Y183.638 E.03941
G1 X177.759 Y183.852 E.03793
G1 X176.803 Y183.987 E.03485
G1 X175.851 Y184.064 E.0345
G1 X174.817 Y184.082 E.03733
G1 X174.087 Y184.055 E.02637
G1 X150.65 Y182.629 E.84777
G1 X150.307 Y182.58 E.01254
G1 X150.015 Y182.503 E.01087
