; HEADER_BLOCK_START
; generated by Creality_Print V6.0.0.1074 on 2025-01-02 at 17:04:41
; total layer number: 13
; filament_density: 1.24,1.24,1.24
; filament_diameter: 1.75,1.75,1.75
; max_z_height: 3.08
; HEADER_BLOCK_END

; MINX = 125.00
; MINY = 125.00
; MINZ = 0.00
; MAXX = 225.00
; MAXY = 256.93
; MAXZ = 3.00

; THUMBNAIL_BLOCK_START

;
; THUMBNAIL_BLOCK_END

; THUMBNAIL_BLOCK_START

;
; THUMBNAIL_BLOCK_END

; external perimeters extrusion width = 0.42mm
; perimeters extrusion width = 0.45mm
; infill extrusion width = 0.45mm
; solid infill extrusion width = 0.42mm
; top infill extrusion width = 0.42mm
; first layer extrusion width = 0.50mm

; external perimeters extrusion width = 0.42mm
; perimeters extrusion width = 0.45mm
; infill extrusion width = 0.45mm
; solid infill extrusion width = 0.42mm
; top infill extrusion width = 0.42mm
; first layer extrusion width = 0.50mm

; external perimeters extrusion width = 0.42mm
; perimeters extrusion width = 0.45mm
; infill extrusion width = 0.45mm
; solid infill extrusion width = 0.42mm
; top infill extrusion width = 0.42mm
; first layer extrusion width = 0.50mm

; EXECUTABLE_BLOCK_START
EXCLUDE_OBJECT_DEFINE NAME=Crealitylogo_id_0_copy_0 CENTER=179.535,175.31 POLYGON=[[129.535,135.31],[129.626,133.954],[129.892,132.653],[130.321,131.419],[130.901,130.264],[131.62,129.201],[132.465,128.24],[133.426,127.395],[134.489,126.676],[135.644,126.096],[136.878,125.667],[138.179,125.401],[139.535,125.31],[219.535,125.31],[220.891,125.401],[222.192,125.667],[223.426,126.096],[224.581,126.676],[225.644,127.395],[226.605,128.24],[227.45,129.201],[228.169,130.264],[228.749,131.419],[229.178,132.653],[229.444,133.954],[229.535,135.31],[229.535,215.31],[229.444,216.666],[229.178,217.967],[228.749,219.201],[228.169,220.356],[227.45,221.419],[226.605,222.38],[225.644,223.225],[224.581,223.944],[223.426,224.524],[222.192,224.953],[220.891,225.219],[219.535,225.31],[139.535,225.31],[138.179,225.219],[136.878,224.953],[135.644,224.524],[134.489,223.944],[133.426,223.225],[132.465,222.38],[131.62,221.419],[130.901,220.356],[130.321,219.201],[129.892,217.967],[129.626,216.666],[129.535,215.31],[129.535,135.31]]
M73 P0 R25
M106 S0
M106 P2 S0
;TYPE:Custom
M141 S35;set chamber_temperature
M140 S0
M104 S0 
START_PRINT EXTRUDER_TEMP=220 BED_TEMP=50
T0
M109 S220
M204 S2000
G1 Z3 F600
M83
G1 Y150 F12000
G1 X0 F12000
G1 Z0.2 F600
G1 X0 Y150 F6000
G1 X0 Y0 E15 F6000
G1 X150 Y0 E15 F6000
G92 E0
G1 Z1 F600
G90
G21
M83 ; use relative distances for extrusion

G1 E-.8 F2400
G1 Z.2 F30000
M106 S0
;LAYER_CHANGE
;Z:0.2
;HEIGHT:0.2
;BEFORE_LAYER_CHANGE
;0.2
G92 E0

;_SET_FAN_SPEED_CHANGING_LAYER
SET_VELOCITY_LIMIT ACCEL=2000 ACCEL_TO_DECEL=2000
SET_VELOCITY_LIMIT SQUARE_CORNER_VELOCITY=20
G1 Z.6 F30000
G1 X169.683 Y247.008
G1 Z.2
G1 E.8 F2400
;HEIGHT:0.2
;TYPE:Prime tower
;WIDTH:0.5
G1  X188.683 Y247.008  E0.7221 F3600
G1  Y261.508  E0.5511
G1  X169.683  E0.7221
G1  Y247.008  E0.5511
G1  X188.683 
G1  Y261.508 
G1  X187.683 
;--------------------
; CP EMPTY GRID START
; wipe tower layer #1
G1  Y261.008  E0.0190
G1  X170.183  E0.6651
G1  Y260.508  E0.0190
G1  X188.183  E0.6841
G1  Y260.008  E0.0190
G1  X170.183  E0.6841
G1  Y259.508  E0.0190
G1  X188.183  E0.6841
G1  Y259.008  E0.0190
G1  X170.183  E0.6841
G1  Y258.508  E0.0190
G1  X188.183  E0.6841
G1  Y258.008  E0.0190
G1  X170.183  E0.6841
G1  Y257.508  E0.0190
G1  X188.183  E0.6841
G1  Y257.008  E0.0190
G1  X170.183  E0.6841
G1  Y256.508  E0.0190
G1  X188.183  E0.6841
G1  Y256.008  E0.0190
G1  X170.183  E0.6841
G1  Y255.508  E0.0190
G1  X188.183  E0.6841
G1  Y255.008  E0.0190
G1  X170.183  E0.6841
G1  Y254.508  E0.0190
G1  X188.183  E0.6841
G1  Y254.008  E0.0190
G1  X170.183  E0.6841
G1  Y253.508  E0.0190
G1  X188.183  E0.6841
G1  Y253.008  E0.0190
G1  X170.183  E0.6841
G1  Y252.508  E0.0190
G1  X188.183  E0.6841
G1  Y252.008  E0.0190
G1  X170.183  E0.6841
G1  Y251.508  E0.0190
G1  X188.183  E0.6841
G1  Y251.008  E0.0190
G1  X170.183  E0.6841
G1  Y250.508  E0.0190
G1  X188.183  E0.6841
G1  Y250.008  E0.0190
G1  X170.183  E0.6841
G1  Y249.508  E0.0190
G1  X188.183  E0.6841
G1  Y249.008  E0.0190
G1  X170.183  E0.6841
M73 P1 R25
G1  Y248.508  E0.0190
M73 P1 R25
G1  X188.183  E0.6841
G1  Y248.008  E0.0190
G1  X170.183  E0.6841
G1  Y247.508  E0.0190
G1  X188.183  E0.6841
G1  Y247.008  E0.0190
; CP EMPTY GRID END
;------------------






G1  X189.183 
G1  Y246.508 
G1  Y262.008  E0.5891
G1  X169.183  E0.7601
G1  Y246.508  E0.5891
G1  X189.183  E0.7601
G1  X189.640 
G1  Y246.051 
G1  Y262.465  E0.6238
G1  X168.726  E0.7949
G1  Y246.051  E0.6238
G1  X189.640  E0.7949
G1  X190.097 
G1  Y245.594 
G1  Y262.922  E0.6586
G1  X168.269  E0.8296
G1  Y245.594  E0.6586
G1  X190.097  E0.8296
G1  X190.554 Y245.137  
G1  Y263.379  E0.6933
G1  X167.812  E0.8644
G1  Y245.137  E0.6933
G1  X190.554  E0.8644
G1  X191.011 Y244.680  
G1  Y263.836  E0.7281
G1  X167.355  E0.8991
G1  Y244.680  E0.7281
G1  X191.011  E0.8991

G1 E-.56 F2400
;WIPE_START
G1 F3600
G1 X189.011 Y244.68 E-.24
;WIPE_END
EXCLUDE_OBJECT_START NAME=Crealitylogo_id_0_copy_0
G1 X185.814 Y237.749 Z.6 F30000
G1 X134.923 Y127.417 Z.6
G1 Z.2
G1 E.8 F2400
;TYPE:Inner wall
;WIDTH:0.499999
;HEIGHT:0.2
G1 F3600
G1 X135.979 Y126.888 E.04263
G1 X137.105 Y126.496 E.04308
G1 X138.294 Y126.253 E.0438
G1 X139.564 Y126.167 E.04595
G1 X219.506 Y126.167 E2.88639
G1 X220.776 Y126.253 E.04595
G1 X221.965 Y126.496 E.0438
G1 X223.091 Y126.888 E.04308
G1 X224.147 Y127.417 E.04263
G1 X225.119 Y128.074 E.04237
G1 X225.997 Y128.848 E.04226
G1 X226.771 Y129.726 E.04226
G1 X227.428 Y130.698 E.04237
G1 X227.957 Y131.754 E.04263
G1 X228.349 Y132.88 E.04308
G1 X228.592 Y134.069 E.0438
G3 X228.678 Y135.658 I-23.575 J2.066 E.05747
G1 X228.678 Y215.281 E2.87486
G1 X228.592 Y216.551 E.04595
G1 X228.349 Y217.74 E.0438
G1 X227.957 Y218.866 E.04308
G1 X227.428 Y219.922 E.04263
G1 X226.771 Y220.894 E.04237
G1 X225.997 Y221.772 E.04226
G1 X225.119 Y222.546 E.04226
G1 X224.147 Y223.203 E.04237
G1 X223.091 Y223.732 E.04263
G1 X221.965 Y224.124 E.04308
G1 X220.776 Y224.367 E.0438
G1 X219.506 Y224.453 E.04595
G1 X139.564 Y224.453 E2.88639
G1 X138.294 Y224.367 E.04595
G1 X137.105 Y224.124 E.0438
G1 X135.979 Y223.732 E.04308
G1 X134.923 Y223.203 E.04263
G1 X133.951 Y222.546 E.04237
G1 X133.073 Y221.772 E.04226
G1 X132.299 Y220.894 E.04226
G1 X131.642 Y219.922 E.04237
G1 X131.113 Y218.866 E.04263
G1 X130.721 Y217.74 E.04308
G1 X130.478 Y216.551 E.0438
G1 X130.392 Y215.281 E.04595
G1 X130.392 Y135.339 E2.88639
G1 X130.478 Y134.069 E.04595
G1 X130.721 Y132.88 E.0438
G1 X131.113 Y131.754 E.04308
G1 X131.642 Y130.698 E.04263
G1 X132.299 Y129.726 E.04237
G1 X133.073 Y128.848 E.04226
G1 X133.951 Y128.074 E.04226
G1 X134.89 Y127.44 E.04093
G1 X134.692 Y127.022 F30000
;TYPE:Outer wall
G1 F3600
G1 X135.8 Y126.466 E.04477
G1 X136.984 Y126.054 E.04526
G1 X138.233 Y125.799 E.04601
G1 X139.548 Y125.71 E.04762
G1 X219.522 Y125.71 E2.8875
M73 P2 R24
G1 X220.837 Y125.799 E.04762
M73 P2 R24
G1 X222.086 Y126.054 E.04601
G1 X223.27 Y126.466 E.04526
G1 X224.378 Y127.022 E.04477
G1 X225.399 Y127.712 E.04449
G1 X226.321 Y128.524 E.04436
G1 X227.133 Y129.446 E.04436
G1 X227.823 Y130.467 E.04449
G1 X228.379 Y131.575 E.04477
G1 X228.791 Y132.759 E.04526
G1 X229.046 Y134.008 E.04601
G3 X229.135 Y135.658 I-24.487 J2.143 E.05969
G1 X229.135 Y215.297 E2.87542
G1 X229.046 Y216.612 E.04762
G1 X228.791 Y217.861 E.04601
G1 X228.379 Y219.045 E.04526
G1 X227.823 Y220.153 E.04477
G1 X227.133 Y221.174 E.04449
G1 X226.321 Y222.096 E.04436
G1 X225.399 Y222.908 E.04436
G1 X224.378 Y223.598 E.04449
G1 X223.27 Y224.154 E.04477
G1 X222.086 Y224.566 E.04526
G1 X220.837 Y224.821 E.04601
G1 X219.522 Y224.91 E.04762
G1 X139.548 Y224.91 E2.8875
G1 X138.233 Y224.821 E.04762
G1 X136.984 Y224.566 E.04601
G1 X135.8 Y224.154 E.04526
G1 X134.692 Y223.598 E.04477
G1 X133.671 Y222.908 E.04449
G1 X132.749 Y222.096 E.04436
G1 X131.937 Y221.174 E.04436
G1 X131.247 Y220.153 E.04449
G1 X130.691 Y219.045 E.04477
G1 X130.279 Y217.861 E.04526
G1 X130.024 Y216.612 E.04601
G1 X129.935 Y215.297 E.04762
G1 X129.935 Y135.323 E2.8875
G1 X130.024 Y134.008 E.04762
G1 X130.279 Y132.759 E.04601
G1 X130.691 Y131.575 E.04526
G1 X131.247 Y130.467 E.04477
G1 X131.937 Y129.446 E.04449
G1 X132.749 Y128.524 E.04436
G1 X133.671 Y127.712 E.04436
G1 X134.659 Y127.044 E.04305
G1 E-.56 F2400
;WIPE_START
G1 F3600
G1 X135.8 Y126.466 E-.15356
G1 X136.481 Y126.229 E-.08644
;WIPE_END
G1 X144.099 Y126.695 Z.6 F30000
G1 X227.834 Y131.816 Z.6
G1 Z.2
G1 E.8 F2400
;TYPE:Bottom surface
;WIDTH:0.500015
G1 F6300
G1 X223.489 Y127.471 E.22188
G2 X222.372 Y127 I-2.346 J4.01 E.04387
G1 X227.845 Y132.473 E.27945
G3 X228.101 Y133.375 I-3.25 J1.409 E.03397
G1 X221.47 Y126.744 E.33859
G1 X220.668 Y126.589 E.0295
G1 X228.256 Y134.177 E.38748
G1 X228.303 Y134.87 E.02508
G1 X219.975 Y126.542 E.42526
G1 X219.802 Y126.531 E.00626
G2 X219.296 Y126.51 I-.406 J3.744 E.01829
G1 X228.335 Y135.549 E.46157
G1 X228.335 Y136.196 E.02334
G1 X218.649 Y126.51 E.49458
G1 X218.003 Y126.51 E.02334
G1 X228.335 Y136.842 E.52759
G1 X228.335 Y137.488 E.02334
G1 X217.357 Y126.51 E.5606
G1 X216.71 Y126.51 E.02334
G1 X228.335 Y138.135 E.59361
G1 X228.335 Y138.781 E.02334
G1 X216.064 Y126.51 E.62662
G1 X215.417 Y126.51 E.02334
G1 X228.335 Y139.428 E.65963
G1 X228.335 Y140.074 E.02334
G1 X214.771 Y126.51 E.69263
G1 X214.124 Y126.51 E.02334
G1 X228.335 Y140.721 E.72564
G1 X228.335 Y141.367 E.02334
G1 X213.478 Y126.51 E.75865
G1 X212.832 Y126.51 E.02334
G1 X228.335 Y142.013 E.79166
G1 X228.335 Y142.66 E.02334
G1 X212.185 Y126.51 E.82467
G1 X211.539 Y126.51 E.02334
G1 X228.335 Y143.306 E.85768
G1 X228.335 Y143.953 E.02334
G1 X210.892 Y126.51 E.89069
G1 X210.246 Y126.51 E.02334
G1 X228.335 Y144.599 E.9237
G1 X228.335 Y145.246 E.02334
G1 X209.599 Y126.51 E.95671
G1 X208.953 Y126.51 E.02334
G1 X228.335 Y145.892 E.98971
G1 X228.335 Y146.538 E.02334
G1 X208.307 Y126.51 E1.02272
G1 X207.66 Y126.51 E.02334
G1 X228.335 Y147.185 E1.05573
G1 X228.335 Y147.831 E.02334
G1 X207.014 Y126.51 E1.08874
G1 X206.367 Y126.51 E.02334
G1 X228.335 Y148.478 E1.12175
G1 X228.335 Y149.124 E.02334
G1 X205.721 Y126.51 E1.15476
G1 X205.074 Y126.51 E.02334
G1 X228.335 Y149.771 E1.18777
G1 X228.335 Y150.417 E.02334
G1 X204.428 Y126.51 E1.22078
G1 X203.782 Y126.51 E.02334
G1 X228.335 Y151.063 E1.25378
G1 X228.335 Y151.71 E.02334
G1 X203.135 Y126.51 E1.28679
G1 X202.489 Y126.51 E.02334
G1 X228.335 Y152.356 E1.3198
G1 X228.335 Y153.003 E.02334
G1 X201.842 Y126.51 E1.35281
M73 P3 R24
G1 X201.196 Y126.51 E.02334
M73 P3 R24
G1 X228.335 Y153.649 E1.38582
G1 X228.335 Y154.296 E.02334
G1 X200.549 Y126.51 E1.41883
G1 X199.903 Y126.51 E.02334
G1 X228.335 Y154.942 E1.45184
G1 X228.335 Y155.588 E.02334
G1 X199.257 Y126.51 E1.48485
G1 X198.61 Y126.51 E.02334
G1 X228.335 Y156.235 E1.51786
G1 X228.335 Y156.881 E.02334
G1 X197.964 Y126.51 E1.55086
G1 X197.317 Y126.51 E.02334
G1 X228.335 Y157.528 E1.58387
G1 X228.335 Y158.174 E.02334
G1 X196.671 Y126.51 E1.61688
G1 X196.024 Y126.51 E.02334
G1 X228.335 Y158.821 E1.64989
G1 X228.335 Y159.467 E.02334
G1 X195.378 Y126.51 E1.6829
G1 X194.732 Y126.51 E.02334
G1 X228.335 Y160.113 E1.71591
G1 X228.335 Y160.76 E.02334
G1 X194.085 Y126.51 E1.74892
G1 X193.439 Y126.51 E.02334
G1 X228.335 Y161.406 E1.78193
G1 X228.335 Y162.053 E.02334
G1 X192.792 Y126.51 E1.81494
G1 X192.146 Y126.51 E.02334
G1 X228.335 Y162.699 E1.84794
G1 X228.335 Y163.346 E.02334
G1 X191.499 Y126.51 E1.88095
G1 X190.853 Y126.51 E.02334
G1 X228.335 Y163.992 E1.91396
G1 X228.335 Y164.638 E.02334
G1 X190.207 Y126.51 E1.94697
G1 X189.56 Y126.51 E.02334
G1 X228.335 Y165.285 E1.97998
G1 X228.335 Y165.931 E.02334
G1 X188.914 Y126.51 E2.01299
G1 X188.267 Y126.51 E.02334
G1 X228.335 Y166.578 E2.046
G1 X228.335 Y167.224 E.02334
G1 X187.621 Y126.51 E2.07901
G1 X186.974 Y126.51 E.02334
G1 X228.335 Y167.871 E2.11202
G1 X228.335 Y168.517 E.02334
G1 X186.328 Y126.51 E2.14502
G1 X185.682 Y126.51 E.02334
G1 X228.335 Y169.163 E2.17803
G1 X228.335 Y169.81 E.02334
G1 X185.035 Y126.51 E2.21104
G1 X184.389 Y126.51 E.02334
G1 X228.335 Y170.456 E2.24405
G1 X228.335 Y171.103 E.02334
G1 X183.742 Y126.51 E2.27706
G1 X183.096 Y126.51 E.02334
G1 X228.335 Y171.749 E2.31007
M73 P4 R24
G1 X228.335 Y172.396 E.02334
M73 P4 R24
G1 X182.449 Y126.51 E2.34308
G1 X181.803 Y126.51 E.02334
G1 X228.335 Y173.042 E2.37609
G1 X228.335 Y173.688 E.02334
G1 X181.157 Y126.51 E2.4091
G1 X180.51 Y126.51 E.02334
G1 X228.335 Y174.335 E2.4421
G1 X228.335 Y174.981 E.02334
G1 X179.864 Y126.51 E2.47511
G1 X179.217 Y126.51 E.02334
G1 X228.335 Y175.628 E2.50812
G1 X228.335 Y176.274 E.02334
G1 X178.571 Y126.51 E2.54113
G1 X177.924 Y126.51 E.02334
G1 X228.335 Y176.921 E2.57414
G1 X228.335 Y177.567 E.02334
G1 X177.278 Y126.51 E2.60715
G1 X176.632 Y126.51 E.02334
G1 X228.335 Y178.213 E2.64016
G1 X228.335 Y178.86 E.02334
G1 X175.985 Y126.51 E2.67317
G1 X175.339 Y126.51 E.02334
G1 X228.335 Y179.506 E2.70617
G1 X228.335 Y180.153 E.02334
G1 X174.692 Y126.51 E2.73918
G1 X174.046 Y126.51 E.02334
G1 X228.335 Y180.799 E2.77219
G1 X228.335 Y181.446 E.02334
G1 X173.399 Y126.51 E2.8052
G1 X172.753 Y126.51 E.02334
G1 X228.335 Y182.092 E2.83821
G1 X228.335 Y182.738 E.02334
G1 X172.107 Y126.51 E2.87122
G1 X171.46 Y126.51 E.02334
G1 X228.335 Y183.385 E2.90423
G1 X228.335 Y184.031 E.02334
G1 X170.814 Y126.51 E2.93724
G1 X170.167 Y126.51 E.02334
G1 X228.335 Y184.678 E2.97025
M73 P5 R24
G1 X228.335 Y185.324 E.02334
M73 P5 R24
G1 X169.521 Y126.51 E3.00325
G1 X168.874 Y126.51 E.02334
G1 X228.335 Y185.971 E3.03626
G1 X228.335 Y186.617 E.02334
G1 X168.228 Y126.51 E3.06927
G1 X167.582 Y126.51 E.02334
G1 X228.335 Y187.263 E3.10228
G1 X228.335 Y187.91 E.02334
G1 X166.935 Y126.51 E3.13529
G1 X166.289 Y126.51 E.02334
G1 X228.335 Y188.556 E3.1683
G1 X228.335 Y189.203 E.02334
G1 X165.642 Y126.51 E3.20131
G1 X164.996 Y126.51 E.02334
G1 X228.335 Y189.849 E3.23432
G1 X228.335 Y190.496 E.02334
G1 X164.349 Y126.51 E3.26733
G1 X163.703 Y126.51 E.02334
G1 X228.335 Y191.142 E3.30033
G1 X228.335 Y191.789 E.02334
G1 X163.056 Y126.51 E3.33334
G1 X162.41 Y126.51 E.02334
G1 X228.335 Y192.435 E3.36635
G1 X228.335 Y193.081 E.02334
G1 X161.764 Y126.51 E3.39936
G1 X161.117 Y126.51 E.02334
G1 X228.335 Y193.728 E3.43237
G1 X228.335 Y194.374 E.02334
G1 X160.471 Y126.51 E3.46538
G1 X159.824 Y126.51 E.02334
G1 X228.335 Y195.021 E3.49839
G1 X228.335 Y195.667 E.02334
G1 X159.178 Y126.51 E3.5314
M73 P6 R23
G1 X158.531 Y126.51 E.02334
M73 P6 R23
G1 X228.335 Y196.314 E3.56441
G1 X228.335 Y196.96 E.02334
G1 X157.885 Y126.51 E3.59741
G1 X157.239 Y126.51 E.02334
G1 X228.335 Y197.606 E3.63042
G1 X228.335 Y198.253 E.02334
G1 X156.592 Y126.51 E3.66343
G1 X155.946 Y126.51 E.02334
G1 X228.335 Y198.899 E3.69644
G1 X228.335 Y199.546 E.02334
G1 X155.299 Y126.51 E3.72945
G1 X154.653 Y126.51 E.02334
G1 X228.335 Y200.192 E3.76246
G1 X228.335 Y200.839 E.02334
G1 X154.006 Y126.51 E3.79547
G1 X153.36 Y126.51 E.02334
G1 X228.335 Y201.485 E3.82848
G1 X228.335 Y202.131 E.02334
G1 X152.714 Y126.51 E3.86149
G1 X152.067 Y126.51 E.02334
G1 X228.335 Y202.778 E3.89449
G1 X228.335 Y203.424 E.02334
G1 X151.421 Y126.51 E3.9275
G1 X150.774 Y126.51 E.02334
G1 X228.335 Y204.071 E3.96051
G1 X228.335 Y204.717 E.02334
G1 X150.128 Y126.51 E3.99352
G1 X149.481 Y126.51 E.02334
G1 X228.335 Y205.364 E4.02653
M73 P7 R23
G1 X228.335 Y206.01 E.02334
M73 P7 R23
G1 X148.835 Y126.51 E4.05954
G1 X148.189 Y126.51 E.02334
G1 X228.335 Y206.656 E4.09255
G1 X228.335 Y207.303 E.02334
G1 X147.542 Y126.51 E4.12556
G1 X146.896 Y126.51 E.02334
G1 X228.335 Y207.949 E4.15856
G1 X228.335 Y208.596 E.02334
G1 X146.249 Y126.51 E4.19157
G1 X145.603 Y126.51 E.02334
G1 X228.335 Y209.242 E4.22458
G1 X228.335 Y209.889 E.02334
G1 X144.956 Y126.51 E4.25759
G1 X144.31 Y126.51 E.02334
G1 X228.335 Y210.535 E4.2906
G1 X228.335 Y211.181 E.02334
G1 X143.664 Y126.51 E4.32361
G1 X143.017 Y126.51 E.02334
G1 X228.335 Y211.828 E4.35662
G1 X228.335 Y212.474 E.02334
G1 X142.371 Y126.51 E4.38963
G1 X141.724 Y126.51 E.02334
G1 X228.335 Y213.121 E4.42264
G1 X228.335 Y213.767 E.02334
G1 X141.078 Y126.51 E4.45564
